;FLAVOR:Marlin
;TIME:14856
;Filament used: 11.8987m
;Layer height: 0.28
;MINX:52.2
;MINY:77.2
;MINZ:0.28
;MAXX:167.8
;MAXY:142.8
;MAXZ:29.96
;TARGET_MACHINE.NAME:Creality Ender-3 Pro
;Generated with Cura_SteamEngine 5.6.0
M82 ;absolute extrusion mode
; Ender 3 Custom Start G-code
G92 E0 ; Reset Extruder
G28 ; Home all axes
G1 Z5.0 F3000 ; Move Z Axis up a bit during heating to not damage bed
M104 S175 ; Start heating up the nozzle most of the way
M190 S60 ; Start heating the bed, wait until target temperature reached
M109 S200 ; Finish heating the nozzle
G1 Z2.0 F3000 ; Move Z Axis up little to prevent scratching of Heat Bed
G1 X0.1 Y20 Z0.3 F5000.0 ; Move to start position
G1 X0.1 Y200.0 Z0.3 F1500.0 E15 ; Draw the first line
G1 X0.4 Y200.0 Z0.3 F5000.0 ; Move to side a little
G1 X0.4 Y20 Z0.3 F1500.0 E30 ; Draw the second line
G92 E0 ; Reset Extruder
G1 Z2.0 F3000 ; Move Z Axis up little to prevent scratching of Heat Bed
G1 X5 Y20 Z0.3 F5000.0 ; Move over to prevent blob squish
G92 E0
G92 E0
G1 F1500 E-6.5
;LAYER_COUNT:107
;LAYER:0
M107
G0 F6000 X55.28 Y78.764 Z0.28
;TYPE:SKIRT
G1 F1500 E0
G1 F1200 X57.303 Y77.557 E0.10969
G1 X59.021 Y77.275 E0.19076
G1 X160.853 Y77.2 E4.93249
G1 X162.749 Y77.666 E5.0234
G1 X164.777 Y78.719 E5.1298
G1 X166.236 Y80.28 E5.22929
G1 X167.443 Y82.303 E5.33899
G1 X167.725 Y84.021 E5.42005
G1 X167.8 Y135.853 E7.83357
G1 X167.334 Y137.749 E7.92448
G1 X166.281 Y139.777 E8.03089
G1 X164.72 Y141.236 E8.13038
G1 X162.697 Y142.443 E8.24007
G1 X160.979 Y142.725 E8.32114
G1 X59.147 Y142.8 E13.06287
G1 X57.251 Y142.334 E13.15378
G1 X55.223 Y141.281 E13.26018
G1 X53.764 Y139.72 E13.35967
G1 X52.557 Y137.697 E13.46937
G1 X52.275 Y135.979 E13.55043
G1 X52.2 Y84.147 E15.96395
G1 X52.666 Y82.251 E16.05487
G1 X53.719 Y80.223 E16.16127
G1 X55.28 Y78.764 E16.26076
G0 F6000 X55.519 Y79.088
G1 F1200 X57.443 Y77.94 E16.36509
G1 X59.086 Y77.67 E16.44262
G1 X160.807 Y77.6 E21.17917
G1 X162.606 Y78.042 E21.26543
G1 X164.532 Y79.042 E21.36649
G1 X165.912 Y80.519 E21.46061
G1 X167.06 Y82.443 E21.56493
G1 X167.33 Y84.086 E21.64246
G1 X167.4 Y135.807 E24.05081
G1 X166.958 Y137.606 E24.13707
G1 X165.958 Y139.532 E24.23812
G1 X164.481 Y140.912 E24.33225
G1 X162.557 Y142.06 E24.43657
G1 X160.914 Y142.33 E24.5141
G1 X59.193 Y142.4 E29.25066
G1 X57.394 Y141.958 E29.33692
G1 X55.468 Y140.958 E29.43797
G1 X54.088 Y139.481 E29.5321
G1 X52.94 Y137.557 E29.63642
G1 X52.67 Y135.914 E29.71395
G1 X52.6 Y84.193 E32.1223
G1 X53.042 Y82.394 E32.20856
G1 X54.042 Y80.468 E32.30961
G1 X55.519 Y79.088 E32.40373
G0 F6000 X55.761 Y79.409
G1 F1200 X57.581 Y78.323 E32.50242
G1 X59.151 Y78.065 E32.57651
G1 X160.76 Y78 E37.30785
G1 X162.464 Y78.419 E37.38956
G1 X164.287 Y79.365 E37.48519
G1 X165.591 Y80.761 E37.57415
G1 X166.677 Y82.581 E37.67283
G1 X166.935 Y84.151 E37.74692
G1 X167 Y135.76 E40.15005
G1 X166.581 Y137.464 E40.23176
G1 X165.635 Y139.287 E40.3274
G1 X164.239 Y140.591 E40.41635
G1 X162.419 Y141.677 E40.51504
G1 X160.849 Y141.935 E40.58912
G1 X59.24 Y142 E45.32046
G1 X57.536 Y141.581 E45.40217
G1 X55.713 Y140.635 E45.49781
G1 X54.409 Y139.239 E45.58676
G1 X53.323 Y137.419 E45.68545
G1 X53.065 Y135.849 E45.75953
G1 X53 Y84.24 E48.16267
G1 X53.419 Y82.536 E48.24437
G1 X54.365 Y80.713 E48.34001
G1 X55.761 Y79.409 E48.42896
G0 F6000 X56.003 Y79.73
G1 F1200 X57.719 Y78.706 E48.52201
G1 X59.216 Y78.46 E48.59265
G1 X160.714 Y78.4 E53.31883
G1 X162.321 Y78.795 E53.39588
G1 X164.042 Y79.688 E53.48616
G1 X165.27 Y81.003 E53.56994
G1 X166.294 Y82.719 E53.66299
G1 X166.54 Y84.216 E53.73363
G1 X166.6 Y135.714 E56.1316
G1 X166.205 Y137.321 E56.20865
G1 X165.312 Y139.042 E56.29894
G1 X163.997 Y140.27 E56.38272
G1 X162.281 Y141.294 E56.47577
G1 X160.784 Y141.54 E56.54641
G1 X59.286 Y141.6 E61.27258
G1 X57.679 Y141.205 E61.34964
G1 X55.958 Y140.312 E61.43992
G1 X54.73 Y138.997 E61.5237
G1 X53.706 Y137.281 E61.61675
G1 X53.46 Y135.784 E61.68739
G1 X53.4 Y84.286 E64.08535
G1 X53.795 Y82.679 E64.16241
G1 X54.688 Y80.958 E64.25269
G1 X56.003 Y79.73 E64.33647
G0 F6000 X56.245 Y80.051
G1 F1200 X57.857 Y79.089 E64.42388
G1 X59.281 Y78.855 E64.49108
G1 X160.668 Y78.8 E69.21209
G1 X162.178 Y79.171 E69.28449
G1 X163.797 Y80.011 E69.36942
G1 X164.949 Y81.245 E69.44803
G1 X165.911 Y82.857 E69.53544
G1 X166.145 Y84.281 E69.60263
G1 X166.2 Y135.668 E71.99543
G1 X165.829 Y137.178 E72.06783
G1 X164.989 Y138.797 E72.15276
G1 X163.755 Y139.949 E72.23137
G1 X162.143 Y140.911 E72.31878
G1 X160.719 Y141.145 E72.38598
G1 X59.332 Y141.2 E77.10698
G1 X57.822 Y140.829 E77.17939
G1 X56.203 Y139.989 E77.26432
G1 X55.051 Y138.755 E77.34292
G1 X54.089 Y137.143 E77.43034
G1 X53.855 Y135.719 E77.49753
G1 X53.8 Y84.332 E79.89033
G1 X54.171 Y82.822 E79.96273
G1 X55.011 Y81.203 E80.04766
G1 X56.245 Y80.051 E80.12627
G0 F6000 X56.487 Y80.372
G1 F1200 X57.995 Y79.472 E80.20804
G1 X59.346 Y79.25 E80.27179
G1 X160.621 Y79.2 E84.98758
G1 X162.036 Y79.548 E85.05543
G1 X163.552 Y80.334 E85.13495
G1 X164.628 Y81.487 E85.20839
G1 X165.528 Y82.995 E85.29016
G1 X165.75 Y84.346 E85.35391
G1 X165.8 Y135.621 E87.74149
G1 X165.452 Y137.036 E87.80934
G1 X164.666 Y138.552 E87.88886
G1 X163.513 Y139.628 E87.96229
G1 X162.005 Y140.528 E88.04407
G1 X160.654 Y140.75 E88.10782
G1 X59.379 Y140.8 E92.82361
G1 X57.964 Y140.452 E92.89146
G1 X56.448 Y139.666 E92.97097
G1 X55.372 Y138.513 E93.04441
G1 X54.472 Y137.005 E93.12618
G1 X54.25 Y135.654 E93.18994
G1 X54.2 Y84.379 E95.57752
G1 X54.548 Y82.964 E95.64537
G1 X55.334 Y81.448 E95.72488
G1 X56.487 Y80.372 E95.79832
G0 F6000 X56.729 Y80.693
G1 F1200 X58.133 Y79.855 E95.87445
G1 X59.411 Y79.645 E95.93476
G1 X160.575 Y79.6 E100.64538
G1 X161.893 Y79.924 E100.70858
G1 X163.307 Y80.657 E100.78274
G1 X164.307 Y81.729 E100.85101
G1 X165.145 Y83.133 E100.92714
G1 X165.355 Y84.411 E100.98745
G1 X165.4 Y135.575 E103.36986
G1 X165.076 Y136.893 E103.43306
G1 X164.343 Y138.307 E103.50722
G1 X163.271 Y139.307 E103.57548
G1 X161.867 Y140.145 E103.65162
G1 X160.589 Y140.355 E103.71193
G1 X59.425 Y140.4 E108.42255
G1 X58.107 Y140.076 E108.48575
G1 X56.693 Y139.343 E108.55991
G1 X55.693 Y138.271 E108.62817
G1 X54.855 Y136.867 E108.70431
G1 X54.645 Y135.589 E108.76462
G1 X54.6 Y84.425 E111.14703
G1 X54.924 Y83.107 E111.21023
G1 X55.657 Y81.693 E111.28439
G1 X56.729 Y80.693 E111.35265
G0 F6000 X56.974 Y81.012
G1 F1200 X58.271 Y80.238 E111.42298
G1 X59.476 Y80.04 E111.47984
G1 X160.529 Y80 E116.1853
G1 X161.75 Y80.3 E116.24384
G1 X163.06 Y80.979 E116.31255
G1 X163.988 Y81.974 E116.3759
G1 X164.762 Y83.271 E116.44623
G1 X164.96 Y84.476 E116.50309
G1 X165 Y135.529 E118.88034
G1 X164.7 Y136.75 E118.93888
G1 X164.021 Y138.06 E119.00759
G1 X163.026 Y138.988 E119.07094
G1 X161.729 Y139.762 E119.14127
G1 X160.524 Y139.96 E119.19814
G1 X59.471 Y140 E123.90359
G1 X58.25 Y139.7 E123.96213
G1 X56.94 Y139.021 E124.03084
G1 X56.012 Y138.026 E124.09419
G1 X55.238 Y136.729 E124.16452
G1 X55.04 Y135.524 E124.22139
G1 X55 Y84.471 E126.59863
G1 X55.3 Y83.25 E126.65717
G1 X55.979 Y81.94 E126.72588
G1 X56.974 Y81.012 E126.78924
G0 F6000 X57.216 Y81.334
G1 F1200 X58.411 Y80.621 E126.85403
G1 X59.541 Y80.435 E126.90736
G1 X160.483 Y80.4 E131.60764
G1 X161.607 Y80.676 E131.66153
G1 X162.813 Y81.301 E131.72478
G1 X163.666 Y82.216 E131.78303
G1 X164.379 Y83.411 E131.84783
G1 X164.565 Y84.541 E131.90115
G1 X164.6 Y135.483 E134.27323
G1 X164.324 Y136.607 E134.32712
G1 X163.699 Y137.813 E134.39037
G1 X162.784 Y138.666 E134.44862
G1 X161.589 Y139.379 E134.51341
G1 X160.459 Y139.565 E134.56674
G1 X59.517 Y139.6 E139.26702
G1 X58.393 Y139.324 E139.32091
G1 X57.187 Y138.699 E139.38416
G1 X56.334 Y137.784 E139.44241
G1 X55.621 Y136.589 E139.50721
G1 X55.435 Y135.459 E139.56053
G1 X55.4 Y84.517 E141.93261
G1 X55.676 Y83.393 E141.9865
G1 X56.301 Y82.187 E142.04975
G1 X57.216 Y81.334 E142.108
G0 F6000 X57.458 Y81.656
G1 F1200 X58.551 Y81.004 E142.16726
G1 X59.606 Y80.83 E142.21705
G1 X160.436 Y80.8 E146.91212
G1 X161.465 Y81.053 E146.96146
G1 X162.566 Y81.623 E147.01919
G1 X163.344 Y82.458 E147.07233
G1 X163.996 Y83.551 E147.13159
G1 X164.17 Y84.606 E147.18138
G1 X164.2 Y135.436 E149.54824
G1 X163.947 Y136.465 E149.59758
G1 X163.377 Y137.566 E149.65531
G1 X162.542 Y138.344 E149.70846
G1 X161.449 Y138.996 E149.76772
G1 X160.394 Y139.17 E149.81751
G1 X59.564 Y139.2 E154.51257
G1 X58.535 Y138.947 E154.56192
G1 X57.434 Y138.377 E154.61965
G1 X56.656 Y137.542 E154.67279
G1 X56.004 Y136.449 E154.73205
G1 X55.83 Y135.394 E154.78184
G1 X55.8 Y84.564 E157.1487
G1 X56.053 Y83.535 E157.19804
G1 X56.623 Y82.434 E157.25577
G1 X57.458 Y81.656 E157.30891
G0 F6000 X57.7 Y81.978
G1 F1200 X58.691 Y81.387 E157.36264
G1 X59.671 Y81.225 E157.40889
G1 X160.39 Y81.2 E162.09879
G1 X161.322 Y81.429 E162.14348
G1 X162.319 Y81.945 E162.19575
G1 X163.022 Y82.7 E162.24379
G1 X163.613 Y83.691 E162.29752
G1 X163.775 Y84.671 E162.34377
G1 X163.8 Y135.39 E164.70546
G1 X163.571 Y136.322 E164.75015
G1 X163.055 Y137.319 E164.80242
G1 X162.3 Y138.022 E164.85046
G1 X161.309 Y138.613 E164.90419
G1 X160.329 Y138.775 E164.95044
G1 X59.61 Y138.8 E169.64034
G1 X58.678 Y138.571 E169.68502
G1 X57.681 Y138.055 E169.7373
G1 X56.978 Y137.3 E169.78533
G1 X56.387 Y136.309 E169.83906
G1 X56.225 Y135.329 E169.88531
G1 X56.2 Y84.61 E172.247
G1 X56.429 Y83.678 E172.29169
G1 X56.945 Y82.681 E172.34397
G1 X57.7 Y81.978 E172.392
G0 F6000 X57.939 Y82.302
G1 F1200 X58.831 Y81.77 E172.44036
G1 X59.736 Y81.62 E172.48308
G1 X160.344 Y81.6 E177.16781
G1 X161.179 Y81.805 E177.20785
G1 X162.074 Y82.268 E177.25477
G1 X162.698 Y82.939 E177.29743
G1 X163.23 Y83.831 E177.3458
G1 X163.38 Y84.736 E177.38851
G1 X163.4 Y135.344 E179.74503
G1 X163.195 Y136.179 E179.78507
G1 X162.732 Y137.074 E179.83199
G1 X162.061 Y137.698 E179.87466
G1 X161.169 Y138.23 E179.92302
G1 X160.264 Y138.38 E179.96573
G1 X59.656 Y138.4 E184.65046
G1 X58.821 Y138.195 E184.6905
G1 X57.926 Y137.732 E184.73742
G1 X57.302 Y137.061 E184.78009
G1 X56.77 Y136.169 E184.82845
G1 X56.62 Y135.264 E184.87116
G1 X56.6 Y84.656 E187.22768
G1 X56.805 Y83.821 E187.26772
G1 X57.268 Y82.926 E187.31464
G1 X57.939 Y82.302 E187.35731
G0 F6000 X58.178 Y82.626
G1 F1200 X58.971 Y82.153 E187.4003
G1 X59.802 Y82.015 E187.43953
G1 X160.298 Y82 E192.11904
G1 X161.036 Y82.181 E192.15443
G1 X161.829 Y82.591 E192.19599
G1 X162.374 Y83.178 E192.23329
G1 X162.847 Y83.971 E192.27629
G1 X162.985 Y84.802 E192.31551
G1 X163 Y135.298 E194.66682
G1 X162.819 Y136.036 E194.7022
G1 X162.409 Y136.829 E194.74377
G1 X161.822 Y137.374 E194.78107
G1 X161.029 Y137.847 E194.82406
G1 X160.198 Y137.985 E194.86329
G1 X59.702 Y138 E199.5428
G1 X58.964 Y137.819 E199.57818
G1 X58.171 Y137.409 E199.61975
G1 X57.626 Y136.822 E199.65705
G1 X57.153 Y136.029 E199.70005
G1 X57.015 Y135.198 E199.73927
G1 X57 Y84.702 E202.09058
G1 X57.181 Y83.964 E202.12596
G1 X57.591 Y83.171 E202.16753
G1 X58.178 Y82.626 E202.20483
G0 F6000 X58.417 Y82.95
G1 F1200 X59.111 Y82.536 E202.24245
G1 X59.868 Y82.41 E202.27819
G1 X160.248 Y82.4 E206.9523
G1 X160.897 Y82.559 E206.98342
G1 X161.584 Y82.914 E207.01942
G1 X162.05 Y83.417 E207.05135
G1 X162.464 Y84.111 E207.08898
G1 X162.59 Y84.868 E207.12471
G1 X162.6 Y135.248 E209.47062
G1 X162.441 Y135.897 E209.50173
G1 X162.086 Y136.584 E209.53774
G1 X161.583 Y137.05 E209.56967
G1 X160.889 Y137.464 E209.6073
G1 X160.132 Y137.59 E209.64303
G1 X59.752 Y137.6 E214.31715
G1 X59.103 Y137.441 E214.34826
G1 X58.416 Y137.086 E214.38427
G1 X57.95 Y136.583 E214.4162
G1 X57.536 Y135.889 E214.45382
G1 X57.41 Y135.132 E214.48956
G1 X57.4 Y84.752 E216.83546
G1 X57.559 Y84.103 E216.86658
G1 X57.914 Y83.416 E216.90258
G1 X58.417 Y82.95 E216.93451
G0 F6000 X58.656 Y83.274
G1 F1200 X59.251 Y82.919 E216.96677
G1 X59.934 Y82.805 E216.99902
G1 X160.198 Y82.8 E221.66773
G1 X160.758 Y82.937 E221.69457
G1 X161.338 Y83.237 E221.72498
G1 X161.726 Y83.656 E221.75157
G1 X162.081 Y84.251 E221.78383
G1 X162.195 Y84.934 E221.81608
G1 X162.2 Y135.198 E224.15658
G1 X162.063 Y135.758 E224.18342
G1 X161.763 Y136.338 E224.21383
G1 X161.344 Y136.726 E224.24042
G1 X160.749 Y137.081 E224.27268
G1 X160.066 Y137.195 E224.30493
G1 X59.802 Y137.2 E228.97364
G1 X59.242 Y137.063 E229.00048
G1 X58.662 Y136.763 E229.03089
G1 X58.274 Y136.344 E229.05748
G1 X57.919 Y135.749 E229.08974
G1 X57.805 Y135.066 E229.12199
G1 X57.8 Y84.802 E231.46249
G1 X57.937 Y84.242 E231.48933
G1 X58.237 Y83.662 E231.51974
G1 X58.656 Y83.274 E231.54633
G0 F6000 X58.898 Y83.595
G1 F1200 X59.389 Y83.302 E231.57295
G1 X60 Y83.2 E231.6018
G1 X160.148 Y83.2 E236.26511
G1 X160.619 Y83.315 E236.28769
G1 X161.092 Y83.56 E236.31249
G1 X161.405 Y83.898 E236.33394
G1 X161.698 Y84.389 E236.36056
G1 X161.8 Y85 E236.38941
G1 X161.8 Y135.148 E238.72451
G1 X161.685 Y135.619 E238.74709
G1 X161.44 Y136.092 E238.77189
G1 X161.102 Y136.405 E238.79334
G1 X160.611 Y136.698 E238.81997
G1 X160 Y136.8 E238.84881
G1 X59.852 Y136.8 E243.51212
G1 X59.381 Y136.685 E243.5347
G1 X58.908 Y136.44 E243.5595
G1 X58.595 Y136.102 E243.58095
G1 X58.302 Y135.611 E243.60757
G1 X58.2 Y135 E243.63642
G1 X58.2 Y84.852 E245.97152
G1 X58.315 Y84.381 E245.9941
G1 X58.56 Y83.908 E246.0189
G1 X58.898 Y83.595 E246.04035
G0 F6000 X59.14 Y83.916
G1 F1200 X59.527 Y83.685 E246.06134
G1 X60 Y83.6 E246.08372
G1 X160.098 Y83.6 E250.7447
G1 X160.48 Y83.693 E250.763
G1 X160.846 Y83.883 E250.78221
G1 X161.084 Y84.14 E250.79852
G1 X161.315 Y84.527 E250.8195
G1 X161.4 Y85 E250.84188
G1 X161.4 Y135.098 E253.17465
G1 X161.307 Y135.48 E253.19296
G1 X161.117 Y135.846 E253.21216
G1 X160.86 Y136.084 E253.22847
G1 X160.473 Y136.315 E253.24946
G1 X160 Y136.4 E253.27184
G1 X59.902 Y136.4 E257.93282
G1 X59.52 Y136.307 E257.95113
G1 X59.154 Y136.117 E257.97033
G1 X58.916 Y135.86 E257.98664
G1 X58.685 Y135.473 E258.00763
G1 X58.6 Y135 E258.03
G1 X58.6 Y84.902 E260.36278
G1 X58.693 Y84.52 E260.38108
G1 X58.883 Y84.154 E260.40028
G1 X59.14 Y83.916 E260.4166
G0 F6000 X59.345 Y84.26
G1 F1200 X59.672 Y84.065 E260.43432
G1 X60 Y84 E260.44989
G1 X160.049 Y84 E265.10859
G1 X160.338 Y84.07 E265.12244
G1 X160.601 Y84.207 E265.13625
G1 X160.74 Y84.345 E265.14537
G1 X160.935 Y84.672 E265.1631
G1 X161 Y85 E265.17867
G1 X161 Y135.049 E267.50916
G1 X160.93 Y135.338 E267.523
G1 X160.793 Y135.601 E267.53681
G1 X160.655 Y135.74 E267.54593
G1 X160.328 Y135.935 E267.56366
G1 X160 Y136 E267.57923
G1 X59.951 Y136 E272.23793
G1 X59.662 Y135.93 E272.25178
G1 X59.399 Y135.793 E272.26559
G1 X59.26 Y135.655 E272.27471
G1 X59.065 Y135.328 E272.29244
G1 X59 Y135 E272.30801
G1 X59 Y84.951 E274.6385
G1 X59.07 Y84.662 E274.65234
G1 X59.207 Y84.399 E274.66615
G1 X59.345 Y84.26 E274.67527
G0 F6000 X59.839 Y84.881
G1 F1200 X60 Y84.8 E274.68366
G1 X160 Y84.8 E279.34008
G1 X160.119 Y84.839 E279.34591
G1 X160.2 Y85 E279.35431
G1 X160.2 Y135 E281.68252
G1 X160.161 Y135.119 E281.68835
G1 X160 Y135.2 E281.69674
G1 X60 Y135.2 E286.35316
G1 X59.881 Y135.161 E286.35899
G1 X59.8 Y135 E286.36738
G1 X59.8 Y85 E288.69559
G1 X59.839 Y84.881 E288.70142
G0 F6000 X59.55 Y84.604
G1 F1200 X59.82 Y84.443 E288.71606
G1 X60 Y84.4 E288.72468
G1 X160 Y84.4 E293.3811
G1 X160.244 Y84.459 E293.39278
G1 X160.396 Y84.55 E293.40103
G1 X160.557 Y84.82 E293.41567
G1 X160.6 Y85 E293.42429
G1 X160.6 Y135 E295.7525
G1 X160.541 Y135.244 E295.76419
G1 X160.45 Y135.396 E295.77244
G1 X160.18 Y135.557 E295.78707
G1 X160 Y135.6 E295.79569
G1 X60 Y135.6 E300.45211
G1 X59.756 Y135.541 E300.4638
G1 X59.604 Y135.45 E300.47205
G1 X59.443 Y135.18 E300.48669
G1 X59.4 Y135 E300.4953
G1 X59.4 Y85 E302.82351
G1 X59.459 Y84.756 E302.8352
G1 X59.55 Y84.604 E302.84345
G1 F1500 E296.34345
;MESH:MiamBox Roxy v5.stl
G0 F6000 X68.786 Y103.994
G0 X75.356 Y123.336
;TYPE:WALL-INNER
G1 F1500 E302.84345
G1 F1200 X74.622 Y123.496 E302.87843
G1 X73.865 Y123.496 E302.91368
G1 X73.132 Y123.336 E302.94862
G1 X72.442 Y123.03 E302.98376
G1 X71.837 Y122.59 E303.0186
G1 X71.33 Y122.034 E303.05364
G1 X70.952 Y121.374 E303.08905
G1 X70.717 Y120.637 E303.12507
G1 X70.647 Y119.978 E303.15593
G1 X70.644 Y108.848 E303.67419
G1 X70.195 Y108.412 E303.70333
G1 X69.641 Y107.644 E303.74743
G1 X69.236 Y106.801 E303.79098
G1 X68.982 Y105.884 E303.83528
