;FLAVOR:Marlin
;TIME:29042
;Filament used: 16.5306m
;Layer height: 0.16
;MINX:34
;MINY:74
;MINZ:0.2
;MAXX:186
;MAXY:146
;MAXZ:29.88
;TARGET_MACHINE.NAME:Creality Ender-3 Pro
;Generated with Cura_SteamEngine 5.6.0
M82 ;absolute extrusion mode
; Ender 3 Custom Start G-code
G92 E0 ; Reset Extruder
G28 ; Home all axes
G1 Z5.0 F3000 ; Move Z Axis up a bit during heating to not damage bed
M104 S175 ; Start heating up the nozzle most of the way
M190 S60 ; Start heating the bed, wait until target temperature reached
M109 S200 ; Finish heating the nozzle
G1 Z2.0 F3000 ; Move Z Axis up little to prevent scratching of Heat Bed
G1 X0.1 Y20 Z0.3 F5000.0 ; Move to start position
G1 X0.1 Y200.0 Z0.3 F1500.0 E15 ; Draw the first line
G1 X0.4 Y200.0 Z0.3 F5000.0 ; Move to side a little
G1 X0.4 Y20 Z0.3 F1500.0 E30 ; Draw the second line
G92 E0 ; Reset Extruder
G1 Z2.0 F3000 ; Move Z Axis up little to prevent scratching of Heat Bed
G1 X5 Y20 Z0.3 F5000.0 ; Move over to prevent blob squish
G92 E0
G92 E0
G1 F1500 E-6.5
;LAYER_COUNT:165
;LAYER:0
M107
G0 F6000 X39.821 Y75.311 Z0.2
;TYPE:SKIRT
G1 F1500 E0
G1 F1200 X40.699 Y74.89 E0.03239
G1 X41.612 Y74.548 E0.06481
G1 X42.549 Y74.289 E0.09715
G1 X43.516 Y74.111 E0.12985
G1 X44.655 Y74.015 E0.16787
G1 X45.312 Y74 E0.18972
G1 X174.304 Y74 E4.48002
G1 X175.184 Y74.013 E4.50929
G1 X176.156 Y74.072 E4.54168
G1 X177.119 Y74.218 E4.57407
G1 X178.066 Y74.449 E4.60649
G1 X178.954 Y74.749 E4.63767
G1 X179.846 Y75.139 E4.67005
G1 X180.729 Y75.626 E4.70359
G1 X181.48 Y76.128 E4.73363
G1 X182.295 Y76.786 E4.76847
G1 X182.993 Y77.464 E4.80084
G1 X183.629 Y78.201 E4.83321
G1 X184.199 Y78.991 E4.86561
G1 X184.661 Y79.767 E4.89565
G1 X185.115 Y80.709 E4.93043
G1 X185.444 Y81.587 E4.96162
G1 X185.713 Y82.559 E4.99516
G1 X185.89 Y83.525 E5.02783
G1 X185.985 Y84.655 E5.06554
G1 X186 Y85.33 E5.088
G1 X185.999 Y134.4 E6.72007
G1 X185.988 Y135.163 E6.74545
G1 X185.931 Y136.136 E6.77787
G1 X185.786 Y137.099 E6.81026
G1 X185.557 Y138.045 E6.84263
G1 X185.246 Y138.969 E6.87506
G1 X184.854 Y139.86 E6.90744
G1 X184.386 Y140.712 E6.93977
G1 X183.864 Y141.493 E6.97101
G1 X183.231 Y142.278 E7.00455
G1 X182.606 Y142.929 E7.03457
G1 X181.817 Y143.617 E7.06939
G1 X181.057 Y144.167 E7.10059
G1 X180.19 Y144.684 E7.13416
G1 X179.312 Y145.106 E7.16656
G1 X178.401 Y145.448 E7.19893
G1 X177.462 Y145.709 E7.23134
G1 X176.496 Y145.887 E7.26401
G1 X175.345 Y145.985 E7.30243
G1 X174.67 Y146 E7.32489
G1 X45.564 Y145.999 E11.61897
G1 X44.831 Y145.988 E11.64336
G1 X43.859 Y145.931 E11.67574
G1 X42.896 Y145.785 E11.70814
G1 X41.95 Y145.556 E11.74051
G1 X41.026 Y145.244 E11.77295
G1 X40.136 Y144.852 E11.80529
G1 X39.313 Y144.401 E11.83651
G1 X38.474 Y143.84 E11.87007
G1 X37.77 Y143.274 E11.90012
G1 X37.017 Y142.549 E11.93488
G1 X36.38 Y141.813 E11.96726
G1 X35.85 Y141.082 E11.99729
G1 X35.314 Y140.185 E12.03205
G1 X34.892 Y139.307 E12.06445
G1 X34.55 Y138.395 E12.09684
G1 X34.29 Y137.457 E12.12922
G1 X34.112 Y136.488 E12.16198
G1 X34.014 Y135.309 E12.20133
G1 X34 Y134.658 E12.22299
G1 X34.001 Y85.525 E13.85716
G1 X34.012 Y84.825 E13.88045
G1 X34.07 Y83.852 E13.91287
G1 X34.216 Y82.889 E13.94526
G1 X34.446 Y81.943 E13.97764
G1 X34.759 Y81.02 E14.01006
G1 X35.151 Y80.13 E14.0424
G1 X35.621 Y79.277 E14.0748
G1 X36.164 Y78.469 E14.10717
G1 X36.731 Y77.765 E14.13724
G1 X37.456 Y77.013 E14.17198
G1 X38.192 Y76.376 E14.20436
G1 X38.924 Y75.846 E14.23442
G1 X39.821 Y75.311 E14.26915
G0 F6000 X39.995 Y75.671
G1 F1200 X40.84 Y75.264 E14.30035
G1 X41.719 Y74.933 E14.33159
G1 X42.622 Y74.682 E14.36276
G1 X43.55 Y74.51 E14.39415
G1 X44.689 Y74.414 E14.43217
G1 X45.321 Y74.4 E14.45319
G1 X174.298 Y74.4 E18.74299
G1 X175.16 Y74.412 E18.77166
G1 X176.097 Y74.468 E18.80288
G1 X177.025 Y74.607 E18.83409
G1 X177.938 Y74.828 E18.86533
G1 X178.794 Y75.116 E18.89537
G1 X179.686 Y75.506 E18.92775
G1 X180.507 Y75.959 E18.95894
G1 X181.258 Y76.461 E18.98898
G1 X182.017 Y77.073 E19.02141
G1 X182.691 Y77.726 E19.05263
G1 X183.305 Y78.435 E19.08382
G1 X183.855 Y79.196 E19.11505
G1 X184.317 Y79.972 E19.14509
G1 X184.74 Y80.849 E19.17747
G1 X185.069 Y81.727 E19.20866
G1 X185.32 Y82.632 E19.2399
G1 X185.491 Y83.559 E19.27125
G1 X185.586 Y84.689 E19.30896
G1 X185.6 Y85.33 E19.33029
G1 X185.599 Y134.395 E20.9622
G1 X185.589 Y135.14 E20.98698
G1 X185.535 Y136.077 E21.0182
G1 X185.397 Y137.006 E21.04943
G1 X185.178 Y137.918 E21.08063
G1 X184.88 Y138.808 E21.11185
G1 X184.503 Y139.668 E21.14308
G1 X184.053 Y140.49 E21.17425
G1 X183.531 Y141.271 E21.20549
G1 X182.942 Y142.001 E21.23669
G1 X182.317 Y142.652 E21.2667
G1 X181.582 Y143.293 E21.29914
G1 X180.822 Y143.843 E21.33034
G1 X180.016 Y144.324 E21.36156
G1 X179.171 Y144.732 E21.39277
G1 X178.293 Y145.063 E21.42398
G1 X177.389 Y145.316 E21.4552
G1 X176.462 Y145.488 E21.48656
G1 X175.311 Y145.586 E21.52498
G1 X174.67 Y145.6 E21.54631
G1 X45.57 Y145.599 E25.84019
G1 X44.854 Y145.589 E25.86401
G1 X43.918 Y145.535 E25.89519
G1 X42.989 Y145.396 E25.92643
G1 X42.077 Y145.177 E25.95763
G1 X41.187 Y144.878 E25.98885
G1 X40.328 Y144.501 E26.02006
G1 X39.505 Y144.05 E26.05127
G1 X38.725 Y143.528 E26.08249
G1 X38.021 Y142.962 E26.11253
G1 X37.319 Y142.287 E26.14492
G1 X36.704 Y141.578 E26.17614
G1 X36.174 Y140.847 E26.20617
G1 X35.674 Y140.011 E26.23857
G1 X35.266 Y139.166 E26.26978
G1 X34.935 Y138.288 E26.30099
G1 X34.683 Y137.384 E26.3322
G1 X34.511 Y136.455 E26.36362
G1 X34.413 Y135.276 E26.40297
G1 X34.4 Y134.658 E26.42353
G1 X34.401 Y85.531 E28.0575
G1 X34.411 Y84.848 E28.08022
G1 X34.466 Y83.911 E28.11144
G1 X34.605 Y82.983 E28.14265
G1 X34.825 Y82.071 E28.17385
G1 X35.125 Y81.181 E28.20509
G1 X35.502 Y80.322 E28.23629
G1 X35.953 Y79.5 E28.26748
G1 X36.476 Y78.72 E28.29871
G1 X37.043 Y78.016 E28.32878
G1 X37.718 Y77.315 E28.36114
G1 X38.427 Y76.7 E28.39236
G1 X39.159 Y76.17 E28.42242
G1 X39.995 Y75.671 E28.4548
G0 F6000 X40.169 Y76.031
G1 F1200 X40.982 Y75.638 E28.48483
G1 X41.827 Y75.318 E28.51489
G1 X42.696 Y75.075 E28.5449
G1 X43.584 Y74.909 E28.57495
G1 X44.723 Y74.813 E28.61296
G1 X45.33 Y74.8 E28.63316
G1 X174.293 Y74.8 E32.92248
G1 X175.137 Y74.811 E32.95056
G1 X176.039 Y74.864 E32.98061
G1 X176.932 Y74.996 E33.01063
G1 X177.81 Y75.207 E33.04067
G1 X178.666 Y75.495 E33.07071
G1 X179.493 Y75.857 E33.10073
G1 X180.285 Y76.292 E33.13079
G1 X181.036 Y76.794 E33.16083
G1 X181.739 Y77.361 E33.19087
G1 X182.389 Y77.988 E33.22091
G1 X182.981 Y78.67 E33.25095
G1 X183.511 Y79.401 E33.28098
G1 X183.973 Y80.177 E33.31101
G1 X184.366 Y80.99 E33.34105
G1 X184.684 Y81.835 E33.37108
G1 X184.927 Y82.705 E33.40112
G1 X185.092 Y83.593 E33.43116
G1 X185.187 Y84.723 E33.46888
G1 X185.2 Y85.33 E33.48907
G1 X185.199 Y134.39 E35.12081
G1 X185.19 Y135.117 E35.145
G1 X185.139 Y136.019 E35.17504
G1 X185.008 Y136.913 E35.2051
G1 X184.799 Y137.791 E35.23512
G1 X184.513 Y138.648 E35.26516
G1 X184.152 Y139.476 E35.29521
G1 X183.72 Y140.268 E35.32521
G1 X183.219 Y141.02 E35.35527
G1 X182.653 Y141.724 E35.38531
G1 X182.028 Y142.375 E35.41533
G1 X181.347 Y142.969 E35.44538
G1 X180.616 Y143.5 E35.47543
G1 X179.842 Y143.964 E35.50545
G1 X179.029 Y144.358 E35.5355
G1 X178.185 Y144.678 E35.56552
G1 X177.315 Y144.923 E35.59558
G1 X176.428 Y145.089 E35.62559
G1 X175.277 Y145.187 E35.66402
G1 X174.67 Y145.2 E35.68421
G1 X45.575 Y145.199 E39.97793
G1 X44.877 Y145.19 E40.00114
G1 X43.976 Y145.139 E40.03116
G1 X43.082 Y145.007 E40.06122
G1 X42.204 Y144.798 E40.09123
G1 X41.347 Y144.511 E40.12129
G1 X40.52 Y144.15 E40.15131
G1 X39.727 Y143.717 E40.18136
G1 X38.976 Y143.216 E40.21138
G1 X38.272 Y142.65 E40.24143
G1 X37.621 Y142.024 E40.27147
G1 X37.028 Y141.343 E40.3015
G1 X36.498 Y140.612 E40.33153
G1 X36.034 Y139.837 E40.36158
G1 X35.64 Y139.024 E40.39162
G1 X35.32 Y138.18 E40.42165
G1 X35.076 Y137.31 E40.4517
G1 X34.91 Y136.422 E40.48175
G1 X34.813 Y135.267 E40.5203
G1 X34.8 Y134.658 E40.54056
G1 X34.801 Y85.536 E42.17436
G1 X34.81 Y84.871 E42.19648
G1 X34.862 Y83.969 E42.22653
G1 X34.994 Y83.076 E42.25655
G1 X35.204 Y82.198 E42.28658
G1 X35.491 Y81.341 E42.31664
G1 X35.853 Y80.514 E42.34667
G1 X36.286 Y79.722 E42.37669
G1 X36.788 Y78.971 E42.40673
G1 X37.355 Y78.267 E42.4368
G1 X37.981 Y77.617 E42.46681
G1 X38.662 Y77.024 E42.49685
G1 X39.394 Y76.494 E42.52691
G1 X40.169 Y76.031 E42.55693
G1 F1500 E36.05693
;MESH:boiteMiamBox Roxy v8.stl
G0 F6000 X55.88 Y109.682
G0 X54.963 Y111.436
G0 X54.644 Y112.342
G0 X54.519 Y113.293
G0 X54.594 Y114.251
G0 X54.867 Y115.171
G0 X55.326 Y116.015
G0 X55.691 Y122.396
G0 X55.799 Y123.209
G0 X56.133 Y124.017
G0 X56.667 Y124.714
G0 X57.363 Y125.246
G0 X58.171 Y125.581
G0 X59.039 Y125.696
G0 X60.802 Y125.384
;TYPE:WALL-INNER
G1 F1500 E42.55693
G1 F1200 X59.948 Y125.74 E42.5877
G1 X59.039 Y125.856 E42.61818
G1 X58.134 Y125.742 E42.64852
G1 X57.276 Y125.383 E42.67946
G1 X56.553 Y124.832 E42.70969
G1 X55.992 Y124.1 E42.74036
G1 X55.641 Y123.252 E42.77089
G1 X55.53 Y122.414 E42.79901
G1 X55.53 Y116.502 E42.99564
G1 X55.193 Y116.111 E43.01281
G1 X54.715 Y115.229 E43.04617
G1 X54.438 Y114.271 E43.07934
G1 X54.359 Y113.271 E43.11271
G1 X54.486 Y112.302 E43.14521
G1 X54.816 Y111.366 E43.17822
G1 X55.342 Y110.518 E43.21141
G1 X56.023 Y109.801 E43.2443
G1 X56.845 Y109.235 E43.27749
G1 X57.765 Y108.852 E43.31064
G1 X58.741 Y108.673 E43.34364
G1 X59.744 Y108.698 E43.37701
G1 X60.712 Y108.935 E43.41016
G1 X61.593 Y109.356 E43.44264
G1 X62.379 Y109.96 E43.47561
G1 X63.032 Y110.722 E43.50898
G1 X63.504 Y111.603 E43.54223
G1 X63.785 Y112.54 E43.57476
G1 X63.864 Y113.535 E43.60796
G1 X63.733 Y114.53 E43.64134
G1 X63.392 Y115.476 E43.67478
G1 X62.888 Y116.302 E43.70697
G1 X62.548 Y116.661 E43.72341
G1 X62.547 Y122.407 E43.91453
G1 X62.435 Y123.246 E43.94268
G1 X62.087 Y124.098 E43.97329
G1 X61.525 Y124.832 E44.00404
G1 X60.802 Y125.384 E44.03429
G0 F6000 X60.596 Y125.031
G1 F1200 X59.845 Y125.35 E44.06143
G1 X59.037 Y125.454 E44.08853
G1 X58.236 Y125.345 E44.11541
G1 X57.482 Y125.031 E44.14258
G1 X56.84 Y124.541 E44.16944
G1 X56.346 Y123.895 E44.19649
G1 X56.03 Y123.148 E44.22347
G1 X55.93 Y122.343 E44.25045
G1 X55.93 Y116.354 E44.44964
G1 X55.522 Y115.878 E44.47049
G1 X55.087 Y115.078 E44.50078
G1 X54.832 Y114.202 E44.53112
G1 X54.762 Y113.315 E44.56072
G1 X54.877 Y112.399 E44.59142
G1 X55.18 Y111.538 E44.62178
G1 X55.659 Y110.762 E44.65211
G1 X56.283 Y110.105 E44.68225
G1 X57.035 Y109.587 E44.71262
G1 X57.868 Y109.239 E44.74265
G1 X58.783 Y109.075 E44.77357
G1 X59.655 Y109.095 E44.80258
G1 X60.543 Y109.304 E44.83292
G1 X61.386 Y109.699 E44.86388
G1 X62.079 Y110.234 E44.893
G1 X62.679 Y110.923 E44.92339
G1 X63.133 Y111.745 E44.95462
G1 X63.39 Y112.627 E44.98518
G1 X63.46 Y113.511 E45.01467
G1 X63.348 Y114.395 E45.04431
G1 X63.042 Y115.276 E45.07533
G1 X62.566 Y116.061 E45.10586
G1 X62.148 Y116.502 E45.12607
G1 X62.147 Y122.382 E45.32164
G1 X62.045 Y123.156 E45.34761
G1 X61.734 Y123.892 E45.37418
G1 X61.238 Y124.541 E45.40135
G1 X60.596 Y125.031 E45.42821
G1 F1500 E38.92821
G0 F6000 X60.78 Y125.273
G0 X62.243 Y124.192
G0 X100.245 Y129.2
G0 X102.362 Y130.178
G0 X103.229 Y130.474
G0 X105.699 Y130.892
G1 F1500 E45.42821
G1 F1200 X104.522 Y130.892 E45.46736
G1 X103.392 Y130.702 E45.50547
G1 X102.297 Y130.328 E45.54395
G1 X101.282 Y129.778 E45.58235
G1 X100.369 Y129.066 E45.62086
G1 X99.579 Y128.209 E45.65963
G1 X98.952 Y127.249 E45.69776
G1 X98.485 Y126.186 E45.73638
G1 X98.206 Y125.061 E45.77493
G1 X98.11 Y123.911 E45.81331
G1 X98.113 Y95.824 E46.74749
G1 X98.206 Y94.758 E46.78308
G1 X98.485 Y93.633 E46.82163
G1 X98.951 Y92.57 E46.86024
G1 X99.577 Y91.611 E46.89833
G1 X100.372 Y90.748 E46.93735
G1 X101.278 Y90.043 E46.97554
G1 X102.296 Y89.491 E47.01405
G1 X103.387 Y89.116 E47.05242
G1 X104.532 Y88.927 E47.09102
G1 X105.69 Y88.927 E47.12954
G1 X106.837 Y89.117 E47.1682
G1 X107.925 Y89.491 E47.20647
G1 X108.943 Y90.043 E47.24499
G1 X109.849 Y90.748 E47.28317
G1 X110.644 Y91.611 E47.32219
G1 X111.27 Y92.57 E47.36029
G1 X111.736 Y93.633 E47.39889
G1 X112.015 Y94.757 E47.43741
G1 X112.107 Y95.825 E47.47306
G1 X112.107 Y123.994 E48.40997
G1 X112.015 Y125.062 E48.44562
G1 X111.736 Y126.186 E48.48414
G1 X111.273 Y127.244 E48.52255
G1 X110.642 Y128.209 E48.5609
G1 X109.852 Y129.066 E48.59967
G1 X108.939 Y129.778 E48.63817
G1 X107.924 Y130.328 E48.67657
G1 X106.828 Y130.702 E48.71509
G1 X105.699 Y130.892 E48.75317
G0 F6000 X105.662 Y130.492
G1 F1200 X104.559 Y130.492 E48.78985
G1 X103.491 Y130.312 E48.82588
G1 X102.457 Y129.959 E48.86221
G1 X101.498 Y129.44 E48.89848
G1 X100.641 Y128.772 E48.93462
G1 X99.898 Y127.965 E48.97111
G1 X99.303 Y127.056 E49.00724
G1 X98.866 Y126.059 E49.04345
G1 X98.6 Y124.997 E49.07986
G1 X98.51 Y123.911 E49.11611
G1 X98.512 Y95.857 E50.04919
G1 X98.6 Y94.822 E50.08373
G1 X98.866 Y93.76 E50.12015
G1 X99.304 Y92.76 E50.15646
G1 X99.896 Y91.855 E50.19243
G1 X100.641 Y91.046 E50.22901
G1 X101.5 Y90.378 E50.2652
G1 X102.454 Y89.86 E50.3013
G1 X103.49 Y89.504 E50.33774
G1 X104.56 Y89.327 E50.37381
G1 X105.661 Y89.327 E50.41043
G1 X106.731 Y89.504 E50.4465
G1 X107.767 Y89.86 E50.48294
G1 X108.721 Y90.378 E50.51904
G1 X109.58 Y91.046 E50.55524
G1 X110.326 Y91.856 E50.59186
G1 X110.917 Y92.76 E50.62778
G1 X111.355 Y93.76 E50.66409
G1 X111.621 Y94.822 E50.70051
G1 X111.708 Y95.858 E50.73509
G1 X111.709 Y123.961 E51.6698
G1 X111.621 Y124.997 E51.70438
G1 X111.355 Y126.059 E51.74079
G1 X110.919 Y127.054 E51.77692
G1 X110.323 Y127.965 E51.81313
G1 X109.58 Y128.772 E51.84962
G1 X108.723 Y129.44 E51.88576
G1 X107.764 Y129.959 E51.92202
G1 X106.73 Y130.312 E51.95836
G1 X105.662 Y130.492 E51.99439
G1 F1500 E45.49439
G0 F6000 X105.71 Y130.787
G0 X106.789 Y130.544
G0 X107.656 Y130.248
G0 X109.976 Y129.2
G0 X157.854 Y124.192
G0 X159.294 Y125.386
G1 F1500 E51.99439
G1 F1200 X158.676 Y124.911 E52.02031
G1 X158.492 Y124.727 E52.02897
G1 X158.014 Y124.105 E52.05506
G1 X157.666 Y123.253 E52.08567
G1 X157.553 Y122.424 E52.11349
G1 X157.553 Y116.506 E52.31033
G1 X157.215 Y116.141 E52.32687
G1 X156.705 Y115.282 E52.3601
G1 X156.385 Y114.339 E52.39322
G1 X156.27 Y113.35 E52.42634
G1 X156.368 Y112.336 E52.46022
G1 X156.654 Y111.434 E52.49169
G1 X157.147 Y110.546 E52.52547
G1 X157.806 Y109.796 E52.55868
G1 X158.608 Y109.205 E52.59182
G1 X159.494 Y108.793 E52.62431
G1 X160.491 Y108.57 E52.65829
G1 X161.493 Y108.561 E52.69162
G1 X162.464 Y108.762 E52.7246
G1 X163.363 Y109.159 E52.75729
G1 X164.198 Y109.753 E52.79137
G1 X164.843 Y110.466 E52.82335
G1 X165.352 Y111.317 E52.85633
G1 X165.67 Y112.27 E52.88975
G1 X165.776 Y113.268 E52.92313
G1 X165.683 Y114.257 E52.95617
G1 X165.384 Y115.197 E52.98897
G1 X164.893 Y116.064 E53.02211
G1 X164.553 Y116.445 E53.0391
G1 X164.554 Y122.413 E53.23759
G1 X164.443 Y123.26 E53.26601
G1 X164.091 Y124.104 E53.29642
G1 X163.533 Y124.834 E53.32698
G1 X162.807 Y125.388 E53.35736
G1 X161.962 Y125.739 E53.38779
G1 X161.054 Y125.858 E53.41825
G1 X160.146 Y125.74 E53.4487
G1 X159.294 Y125.386 E53.47939
G0 F6000 X159.502 Y125.034
G1 F1200 X158.859 Y124.547 E53.50622
G1 X158.362 Y123.9 E53.53335
G1 X158.064 Y123.174 E53.55945
G1 X157.954 Y122.391 E53.58575
G1 X157.953 Y116.349 E53.78671
G1 X157.539 Y115.903 E53.80695
G1 X157.069 Y115.111 E53.83758
G1 X156.777 Y114.232 E53.86839
G1 X156.672 Y113.348 E53.898
G1 X156.754 Y112.464 E53.92752
G1 X157.025 Y111.584 E53.95815
G1 X157.478 Y110.777 E53.98893
G1 X158.074 Y110.094 E54.01908
G1 X158.812 Y109.549 E54.04959
G1 X159.617 Y109.179 E54.07906
G1 X160.547 Y108.97 E54.11076
G1 X161.448 Y108.961 E54.14073
G1 X162.337 Y109.144 E54.17092
G1 X163.167 Y109.508 E54.20106
G1 X163.908 Y110.035 E54.23131
G1 X164.524 Y110.702 E54.26151
G1 X164.988 Y111.489 E54.29189
G1 X165.277 Y112.356 E54.32229
G1 X165.376 Y113.268 E54.3528
G1 X165.293 Y114.145 E54.3821
G1 X165.014 Y115.039 E54.41325
G1 X164.565 Y115.832 E54.44356
G1 X164.153 Y116.293 E54.46412
G1 X164.154 Y122.352 E54.66565
G1 X164.054 Y123.152 E54.69246
G1 X163.737 Y123.902 E54.71954
G1 X163.25 Y124.547 E54.74642
G1 X162.603 Y125.035 E54.77338
G1 X161.859 Y125.35 E54.80025
G1 X161.053 Y125.455 E54.82728
G1 X160.249 Y125.351 E54.85425
G1 X159.502 Y125.034 E54.88124
G1 F1500 E48.38124
G0 F6000 X159.315 Y125.275
