;FLAVOR:Marlin
;TIME:6824
;Filament used: 6.26238m
;Layer height: 0.28
;MINX:36.2
;MINY:76.2
;MINZ:0.28
;MAXX:183.8
;MAXY:143.8
;MAXZ:3.92
;TARGET_MACHINE.NAME:Creality Ender-3 Pro
;Generated with Cura_SteamEngine 5.6.0
M82 ;absolute extrusion mode
; Ender 3 Custom Start G-code
G92 E0 ; Reset Extruder
G28 ; Home all axes
G1 Z5.0 F3000 ; Move Z Axis up a bit during heating to not damage bed
M104 S175 ; Start heating up the nozzle most of the way
M190 S60 ; Start heating the bed, wait until target temperature reached
M109 S200 ; Finish heating the nozzle
G1 Z2.0 F3000 ; Move Z Axis up little to prevent scratching of Heat Bed
G1 X0.1 Y20 Z0.3 F5000.0 ; Move to start position
G1 X0.1 Y200.0 Z0.3 F1500.0 E15 ; Draw the first line
G1 X0.4 Y200.0 Z0.3 F5000.0 ; Move to side a little
G1 X0.4 Y20 Z0.3 F1500.0 E30 ; Draw the second line
G92 E0 ; Reset Extruder
G1 Z2.0 F3000 ; Move Z Axis up little to prevent scratching of Heat Bed
G1 X5 Y20 Z0.3 F5000.0 ; Move over to prevent blob squish
G92 E0
G92 E0
G1 F1500 E-6.5
;LAYER_COUNT:14
;LAYER:0
M107
G0 F6000 X41.303 Y76.557 Z0.28
;TYPE:SKIRT
G1 F1500 E0
G1 F1200 X43.021 Y76.275 E0.08107
G1 X176.853 Y76.2 E6.31285
G1 X178.749 Y76.666 E6.40376
G1 X180.777 Y77.719 E6.51016
G1 X182.236 Y79.28 E6.60966
G1 X183.443 Y81.303 E6.71935
G1 X183.725 Y83.021 E6.80042
G1 X183.8 Y136.853 E9.30706
G1 X183.334 Y138.749 E9.39797
G1 X182.281 Y140.777 E9.50438
G1 X180.72 Y142.236 E9.60387
G1 X178.697 Y143.443 E9.71356
G1 X176.979 Y143.725 E9.79463
G1 X43.147 Y143.8 E16.02641
G1 X41.251 Y143.334 E16.11732
G1 X39.223 Y142.281 E16.22373
G1 X37.764 Y140.72 E16.32322
G1 X36.557 Y138.697 E16.43291
G1 X36.275 Y136.979 E16.51398
G1 X36.2 Y83.147 E19.02062
G1 X36.666 Y81.251 E19.11154
G1 X37.719 Y79.223 E19.21794
G1 X39.28 Y77.764 E19.31743
G1 X41.303 Y76.557 E19.42712
G0 F6000 X41.443 Y76.94
G1 F1200 X43.086 Y76.67 E19.50466
G1 X176.807 Y76.6 E25.73127
G1 X178.606 Y77.042 E25.81753
G1 X180.532 Y78.042 E25.91858
G1 X181.912 Y79.519 E26.0127
G1 X183.06 Y81.443 E26.11703
G1 X183.33 Y83.086 E26.19456
G1 X183.4 Y136.807 E28.69603
G1 X182.958 Y138.606 E28.78229
G1 X181.958 Y140.532 E28.88334
G1 X180.481 Y141.912 E28.97747
G1 X178.557 Y143.06 E29.08179
G1 X176.914 Y143.33 E29.15932
G1 X43.193 Y143.4 E35.38594
G1 X41.394 Y142.958 E35.4722
G1 X39.468 Y141.958 E35.57325
G1 X38.088 Y140.481 E35.66737
G1 X36.94 Y138.557 E35.7717
G1 X36.67 Y136.914 E35.84923
G1 X36.6 Y83.193 E38.3507
G1 X37.042 Y81.394 E38.43696
G1 X38.042 Y79.468 E38.53801
G1 X39.519 Y78.088 E38.63214
G1 X41.443 Y76.94 E38.73646
G0 F6000 X41.581 Y77.323
G1 F1200 X43.151 Y77.065 E38.81055
G1 X176.76 Y77 E45.03194
G1 X178.464 Y77.419 E45.11365
G1 X180.287 Y78.365 E45.20929
G1 X181.591 Y79.761 E45.29824
G1 X182.677 Y81.581 E45.39693
G1 X182.935 Y83.151 E45.47101
G1 X183 Y136.76 E47.96728
G1 X182.581 Y138.464 E48.04898
G1 X181.635 Y140.287 E48.14462
G1 X180.239 Y141.591 E48.23357
G1 X178.419 Y142.677 E48.33226
G1 X176.849 Y142.935 E48.40634
G1 X43.24 Y143 E54.62774
G1 X41.536 Y142.581 E54.70945
G1 X39.713 Y141.635 E54.80508
G1 X38.409 Y140.239 E54.89404
G1 X37.323 Y138.419 E54.99272
G1 X37.065 Y136.849 E55.06681
G1 X37 Y83.24 E57.56307
G1 X37.419 Y81.536 E57.64478
G1 X38.365 Y79.713 E57.74041
G1 X39.761 Y78.409 E57.82937
G1 X41.581 Y77.323 E57.92805
G0 F6000 X41.719 Y77.706
G1 F1200 X43.216 Y77.46 E57.9987
G1 X176.714 Y77.4 E64.21492
G1 X178.321 Y77.795 E64.29198
G1 X180.042 Y78.688 E64.38226
G1 X181.27 Y80.003 E64.46604
G1 X182.294 Y81.719 E64.55909
G1 X182.54 Y83.216 E64.62973
G1 X182.6 Y136.714 E67.12082
G1 X182.205 Y138.321 E67.19788
G1 X181.312 Y140.042 E67.28816
G1 X179.997 Y141.27 E67.37194
G1 X178.281 Y142.294 E67.46499
G1 X176.784 Y142.54 E67.53563
G1 X43.286 Y142.6 E73.75186
G1 X41.679 Y142.205 E73.82892
G1 X39.958 Y141.312 E73.9192
G1 X38.73 Y139.997 E74.00298
G1 X37.706 Y138.281 E74.09603
G1 X37.46 Y136.784 E74.16667
G1 X37.4 Y83.286 E76.65776
G1 X37.795 Y81.679 E76.73482
G1 X38.688 Y79.958 E76.8251
G1 X40.003 Y78.73 E76.90888
G1 X41.719 Y77.706 E77.00193
G0 F6000 X41.857 Y78.089
G1 F1200 X43.281 Y77.855 E77.06913
G1 X176.668 Y77.8 E83.28018
G1 X178.178 Y78.171 E83.35259
G1 X179.797 Y79.011 E83.43752
G1 X180.949 Y80.245 E83.51612
G1 X181.911 Y81.857 E83.60354
G1 X182.145 Y83.281 E83.67073
G1 X182.2 Y136.668 E86.15666
G1 X181.829 Y138.178 E86.22906
G1 X180.989 Y139.797 E86.31399
G1 X179.755 Y140.949 E86.3926
G1 X178.143 Y141.911 E86.48001
G1 X176.719 Y142.145 E86.54721
G1 X43.332 Y142.2 E92.75826
G1 X41.822 Y141.829 E92.83067
G1 X40.203 Y140.989 E92.9156
G1 X39.051 Y139.755 E92.99421
G1 X38.089 Y138.143 E93.08162
G1 X37.855 Y136.719 E93.14881
G1 X37.8 Y83.332 E95.63474
G1 X38.171 Y81.822 E95.70714
G1 X39.011 Y80.203 E95.79207
G1 X40.245 Y79.051 E95.87068
G1 X41.857 Y78.089 E95.95809
G0 F6000 X41.995 Y78.472
G1 F1200 X43.346 Y78.25 E96.02184
G1 X176.621 Y78.2 E102.22768
G1 X178.036 Y78.548 E102.29554
G1 X179.552 Y79.334 E102.37505
G1 X180.628 Y80.487 E102.44849
G1 X181.528 Y81.995 E102.53026
G1 X181.75 Y83.346 E102.59401
G1 X181.8 Y136.621 E105.07472
G1 X181.452 Y138.036 E105.14257
G1 X180.666 Y139.552 E105.22209
G1 X179.513 Y140.628 E105.29552
G1 X178.005 Y141.528 E105.3773
G1 X176.654 Y141.75 E105.44105
G1 X43.379 Y141.8 E111.64689
G1 X41.964 Y141.452 E111.71474
G1 X40.448 Y140.666 E111.79426
G1 X39.372 Y139.513 E111.86769
G1 X38.472 Y138.005 E111.94947
G1 X38.25 Y136.654 E112.01322
G1 X38.2 Y83.379 E114.49393
G1 X38.548 Y81.964 E114.56178
G1 X39.334 Y80.448 E114.64129
G1 X40.487 Y79.372 E114.71473
G1 X41.995 Y78.472 E114.7965
G0 F6000 X42.133 Y78.855
G1 F1200 X43.411 Y78.645 E114.85681
G1 X176.575 Y78.6 E121.05748
G1 X177.893 Y78.924 E121.12068
G1 X179.307 Y79.657 E121.19485
G1 X180.307 Y80.729 E121.26311
G1 X181.145 Y82.133 E121.33925
G1 X181.355 Y83.411 E121.39955
G1 X181.4 Y136.575 E123.87509
G1 X181.076 Y137.893 E123.93829
G1 X180.343 Y139.307 E124.01245
G1 X179.271 Y140.307 E124.08072
G1 X177.867 Y141.145 E124.15685
G1 X176.589 Y141.355 E124.21716
G1 X43.425 Y141.4 E130.41783
G1 X42.107 Y141.076 E130.48103
G1 X40.693 Y140.343 E130.55519
G1 X39.693 Y139.271 E130.62346
G1 X38.855 Y137.867 E130.69959
G1 X38.645 Y136.589 E130.7599
G1 X38.6 Y83.425 E133.23544
G1 X38.924 Y82.107 E133.29864
G1 X39.657 Y80.693 E133.3728
G1 X40.729 Y79.693 E133.44107
G1 X42.133 Y78.855 E133.5172
G0 F6000 X42.271 Y79.238
G1 F1200 X43.476 Y79.04 E133.57406
G1 X176.529 Y79 E139.76957
G1 X177.75 Y79.3 E139.82812
G1 X179.06 Y79.979 E139.89682
G1 X179.988 Y80.974 E139.96018
G1 X180.762 Y82.271 E140.03051
G1 X180.96 Y83.476 E140.08737
G1 X181 Y136.529 E142.55774
G1 X180.7 Y137.75 E142.61628
G1 X180.021 Y139.06 E142.68499
G1 X179.026 Y139.988 E142.74835
G1 X177.729 Y140.762 E142.81868
G1 X176.524 Y140.96 E142.87554
G1 X43.471 Y141 E149.07104
G1 X42.25 Y140.7 E149.12959
G1 X40.94 Y140.021 E149.1983
G1 X40.012 Y139.026 E149.26165
G1 X39.238 Y137.729 E149.33198
G1 X39.04 Y136.524 E149.38884
G1 X39 Y83.471 E151.85921
G1 X39.3 Y82.25 E151.91776
G1 X39.979 Y80.94 E151.98647
G1 X40.974 Y80.012 E152.04982
G1 X42.271 Y79.238 E152.12015
G0 F6000 X42.411 Y79.621
G1 F1200 X43.541 Y79.435 E152.17348
G1 X176.483 Y79.4 E158.36381
G1 X177.607 Y79.676 E158.41771
G1 X178.813 Y80.301 E158.48096
G1 X179.666 Y81.216 E158.5392
G1 X180.379 Y82.411 E158.604
G1 X180.565 Y83.541 E158.65733
G1 X180.6 Y136.483 E161.12253
G1 X180.324 Y137.607 E161.17642
G1 X179.699 Y138.813 E161.23967
G1 X178.784 Y139.666 E161.29792
G1 X177.589 Y140.379 E161.36271
G1 X176.459 Y140.565 E161.41604
G1 X43.517 Y140.6 E167.60638
G1 X42.393 Y140.324 E167.66027
G1 X41.187 Y139.699 E167.72352
G1 X40.334 Y138.784 E167.78177
G1 X39.621 Y137.589 E167.84656
G1 X39.435 Y136.459 E167.89989
G1 X39.4 Y83.517 E170.36509
G1 X39.676 Y82.393 E170.41898
G1 X40.301 Y81.187 E170.48223
G1 X41.216 Y80.334 E170.54048
G1 X42.411 Y79.621 E170.60528
G0 F6000 X42.551 Y80.004
G1 F1200 X43.606 Y79.83 E170.65507
G1 X176.436 Y79.8 E176.84019
G1 X177.465 Y80.053 E176.88953
G1 X178.566 Y80.623 E176.94726
G1 X179.344 Y81.458 E177.0004
G1 X179.996 Y82.551 E177.05967
G1 X180.17 Y83.606 E177.10945
G1 X180.2 Y136.436 E179.56944
G1 X179.947 Y137.465 E179.61878
G1 X179.377 Y138.566 E179.67651
G1 X178.542 Y139.344 E179.72966
G1 X177.449 Y139.996 E179.78892
G1 X176.394 Y140.17 E179.83871
G1 X43.564 Y140.2 E186.02383
G1 X42.535 Y139.947 E186.07317
G1 X41.434 Y139.377 E186.1309
G1 X40.656 Y138.542 E186.18404
G1 X40.004 Y137.449 E186.2433
G1 X39.83 Y136.394 E186.29309
G1 X39.8 Y83.564 E188.75308
G1 X40.053 Y82.535 E188.80242
G1 X40.623 Y81.434 E188.86015
G1 X41.458 Y80.656 E188.91329
G1 X42.551 Y80.004 E188.97256
G0 F6000 X42.691 Y80.387
G1 F1200 X43.671 Y80.225 E189.01881
G1 X176.39 Y80.2 E195.19876
G1 X177.322 Y80.429 E195.24345
G1 X178.319 Y80.945 E195.29572
G1 X179.022 Y81.7 E195.34376
G1 X179.613 Y82.691 E195.39749
G1 X179.775 Y83.671 E195.44374
G1 X179.8 Y136.39 E197.89856
G1 X179.571 Y137.322 E197.94325
G1 X179.055 Y138.319 E197.99552
G1 X178.3 Y139.022 E198.04356
G1 X177.309 Y139.613 E198.09728
G1 X176.329 Y139.775 E198.14354
G1 X43.61 Y139.8 E204.32349
G1 X42.678 Y139.571 E204.36818
G1 X41.681 Y139.055 E204.42045
G1 X40.978 Y138.3 E204.46849
G1 X40.387 Y137.309 E204.52222
G1 X40.225 Y136.329 E204.56847
G1 X40.2 Y83.61 E207.02329
G1 X40.429 Y82.678 E207.06797
G1 X40.945 Y81.681 E207.12025
G1 X41.7 Y80.978 E207.16828
G1 X42.691 Y80.387 E207.22201
G0 F6000 X42.831 Y80.77
G1 F1200 X43.736 Y80.62 E207.26473
G1 X176.344 Y80.6 E213.43951
G1 X177.179 Y80.805 E213.47955
G1 X178.074 Y81.268 E213.52647
G1 X178.698 Y81.939 E213.56914
G1 X179.23 Y82.831 E213.6175
G1 X179.38 Y83.736 E213.66021
G1 X179.4 Y136.344 E216.10986
G1 X179.195 Y137.179 E216.1499
G1 X178.732 Y138.074 E216.19682
G1 X178.061 Y138.698 E216.23949
G1 X177.169 Y139.23 E216.28785
G1 X176.264 Y139.38 E216.33056
G1 X43.656 Y139.4 E222.50535
G1 X42.821 Y139.195 E222.54538
G1 X41.926 Y138.732 E222.5923
G1 X41.302 Y138.061 E222.63497
G1 X40.77 Y137.169 E222.68333
G1 X40.62 Y136.264 E222.72605
G1 X40.6 Y83.656 E225.1757
G1 X40.805 Y82.821 E225.21573
G1 X41.268 Y81.926 E225.26265
G1 X41.939 Y81.302 E225.30532
G1 X42.831 Y80.77 E225.35368
G0 F6000 X42.971 Y81.153
G1 F1200 X43.802 Y81.015 E225.39291
G1 X176.298 Y81 E231.56248
G1 X177.036 Y81.181 E231.59786
G1 X177.829 Y81.591 E231.63943
G1 X178.374 Y82.178 E231.67673
G1 X178.847 Y82.971 E231.71972
G1 X178.985 Y83.802 E231.75895
G1 X179 Y136.298 E234.20338
G1 X178.819 Y137.036 E234.23876
G1 X178.409 Y137.829 E234.28033
G1 X177.822 Y138.374 E234.31763
G1 X177.029 Y138.847 E234.36062
G1 X176.198 Y138.985 E234.39985
G1 X43.702 Y139 E240.56942
G1 X42.964 Y138.819 E240.6048
G1 X42.171 Y138.409 E240.64637
G1 X41.626 Y137.822 E240.68367
G1 X41.153 Y137.029 E240.72666
G1 X41.015 Y136.198 E240.76589
G1 X41 Y83.702 E243.21032
G1 X41.181 Y82.964 E243.2457
G1 X41.591 Y82.171 E243.28727
G1 X42.178 Y81.626 E243.32457
G1 X42.971 Y81.153 E243.36756
G0 F6000 X43.111 Y81.536
G1 F1200 X43.868 Y81.41 E243.4033
G1 X176.248 Y81.4 E249.56747
G1 X176.897 Y81.559 E249.59858
G1 X177.584 Y81.914 E249.63459
G1 X178.05 Y82.417 E249.66652
G1 X178.464 Y83.111 E249.70414
G1 X178.59 Y83.868 E249.73988
G1 X178.6 Y136.248 E252.17891
G1 X178.441 Y136.897 E252.21002
G1 X178.086 Y137.584 E252.24603
G1 X177.583 Y138.05 E252.27796
G1 X176.889 Y138.464 E252.31559
G1 X176.132 Y138.59 E252.35132
G1 X43.752 Y138.6 E258.51549
G1 X43.103 Y138.441 E258.54661
G1 X42.416 Y138.086 E258.58261
G1 X41.95 Y137.583 E258.61454
G1 X41.536 Y136.889 E258.65217
G1 X41.41 Y136.132 E258.6879
G1 X41.4 Y83.752 E261.12694
G1 X41.559 Y83.103 E261.15805
G1 X41.914 Y82.416 E261.19406
G1 X42.417 Y81.95 E261.22599
G1 X43.111 Y81.536 E261.26362
G0 F6000 X43.251 Y81.919
G1 F1200 X43.934 Y81.805 E261.29586
G1 X176.198 Y81.8 E267.45463
G1 X176.758 Y81.937 E267.48147
G1 X177.338 Y82.237 E267.51188
G1 X177.726 Y82.656 E267.53847
G1 X178.081 Y83.251 E267.57073
G1 X178.195 Y83.934 E267.60297
G1 X178.2 Y136.198 E270.0366
G1 X178.063 Y136.758 E270.06345
G1 X177.763 Y137.338 E270.09385
G1 X177.344 Y137.726 E270.12045
G1 X176.749 Y138.081 E270.15271
G1 X176.066 Y138.195 E270.18495
G1 X43.802 Y138.2 E276.34372
G1 X43.242 Y138.063 E276.37056
G1 X42.662 Y137.763 E276.40097
G1 X42.274 Y137.344 E276.42756
G1 X41.919 Y136.749 E276.45982
G1 X41.805 Y136.066 E276.49206
G1 X41.8 Y83.802 E278.92569
G1 X41.937 Y83.242 E278.95254
G1 X42.237 Y82.662 E278.98295
G1 X42.656 Y82.274 E279.00954
G1 X43.251 Y81.919 E279.0418
G0 F6000 X43.389 Y82.302
G1 F1200 X44 Y82.2 E279.07064
G1 X176.148 Y82.2 E285.22401
G1 X176.619 Y82.315 E285.24658
G1 X177.092 Y82.56 E285.27139
G1 X177.405 Y82.898 E285.29284
G1 X177.698 Y83.389 E285.31946
G1 X177.8 Y84 E285.34831
G1 X177.8 Y136.148 E287.77654
G1 X177.685 Y136.619 E287.79911
G1 X177.44 Y137.092 E287.82392
G1 X177.102 Y137.405 E287.84537
G1 X176.611 Y137.698 E287.87199
G1 X176 Y137.8 E287.90084
G1 X43.852 Y137.8 E294.0542
G1 X43.381 Y137.685 E294.07678
G1 X42.908 Y137.44 E294.10158
G1 X42.595 Y137.102 E294.12303
G1 X42.302 Y136.611 E294.14966
G1 X42.2 Y136 E294.1785
G1 X42.2 Y83.852 E296.60673
G1 X42.315 Y83.381 E296.62931
G1 X42.56 Y82.908 E296.65411
G1 X42.898 Y82.595 E296.67556
G1 X43.389 Y82.302 E296.70218
G0 F6000 X43.527 Y82.685
G1 F1200 X44 Y82.6 E296.72456
G1 X176.098 Y82.6 E302.8756
G1 X176.48 Y82.693 E302.89391
G1 X176.846 Y82.883 E302.91311
G1 X177.084 Y83.14 E302.92942
G1 X177.315 Y83.527 E302.9504
G1 X177.4 Y84 E302.97278
G1 X177.4 Y136.098 E305.39868
G1 X177.307 Y136.48 E305.41699
G1 X177.117 Y136.846 E305.43619
G1 X176.86 Y137.084 E305.4525
G1 X176.473 Y137.315 E305.47349
G1 X176 Y137.4 E305.49587
G1 X43.902 Y137.4 E311.6469
G1 X43.52 Y137.307 E311.66521
G1 X43.154 Y137.117 E311.68441
G1 X42.916 Y136.86 E311.70072
G1 X42.685 Y136.473 E311.72171
G1 X42.6 Y136 E311.74409
G1 X42.6 Y83.902 E314.16999
G1 X42.693 Y83.52 E314.18829
G1 X42.883 Y83.154 E314.2075
G1 X43.14 Y82.916 E314.22381
G1 X43.527 Y82.685 E314.24479
G0 F6000 X43.672 Y83.065
G1 F1200 X43.345 Y83.26 E314.26252
G1 X43.207 Y83.399 E314.27164
G1 X43.07 Y83.662 E314.28545
G1 X43 Y83.951 E314.2993
G1 X43 Y136 E316.72292
G1 X43.065 Y136.328 E316.73849
G1 X43.26 Y136.655 E316.75621
G1 X43.399 Y136.793 E316.76533
G1 X43.662 Y136.93 E316.77914
G1 X43.951 Y137 E316.79299
G1 X176 Y137 E322.94174
G1 X176.328 Y136.935 E322.95731
G1 X176.655 Y136.74 E322.97504
G1 X176.793 Y136.601 E322.98416
G1 X176.93 Y136.338 E322.99797
G1 X177 Y136.049 E323.01182
G1 X177 Y84 E325.43544
G1 X176.935 Y83.672 E325.45101
G1 X176.74 Y83.345 E325.46874
G1 X176.601 Y83.207 E325.47786
G1 X176.338 Y83.07 E325.49166
G1 X176.049 Y83 E325.50551
G1 X44 Y83 E331.65426
G1 X43.672 Y83.065 E331.66983
G0 F6000 X43.839 Y83.881
G1 F1200 X44 Y83.8 E331.67823
G1 X176 Y83.8 E337.8247
G1 X176.119 Y83.839 E337.83053
G1 X176.2 Y84 E337.83892
G1 X176.2 Y136 E340.26026
G1 X176.161 Y136.119 E340.26609
G1 X176 Y136.2 E340.27448
G1 X44 Y136.2 E346.42096
G1 X43.881 Y136.161 E346.42679
G1 X43.8 Y136 E346.43518
G1 X43.8 Y84 E348.85652
G1 X43.839 Y83.881 E348.86235
G0 F6000 X43.82 Y83.443
G1 F1200 X44 Y83.4 E348.87097
G1 X176 Y83.4 E355.01744
G1 X176.244 Y83.459 E355.02913
G1 X176.396 Y83.55 E355.03738
G1 X176.557 Y83.82 E355.05202
G1 X176.6 Y84 E355.06063
G1 X176.6 Y136 E357.48197
G1 X176.541 Y136.244 E357.49366
G1 X176.45 Y136.396 E357.50191
G1 X176.18 Y136.557 E357.51655
G1 X176 Y136.6 E357.52516
G1 X44 Y136.6 E363.67164
G1 X43.756 Y136.541 E363.68333
G1 X43.604 Y136.45 E363.69158
G1 X43.443 Y136.18 E363.70621
G1 X43.4 Y136 E363.71483
G1 X43.4 Y84 E366.13617
G1 X43.459 Y83.756 E366.14786
G1 X43.55 Y83.604 E366.15611
G1 X43.82 Y83.443 E366.17075
G0 F6000 X44.2 Y84.2
G1 F1200 X175.8 Y84.2 E372.29859
G1 X175.8 Y135.8 E374.7013
G1 X44.2 Y135.8 E380.82915
G1 X44.2 Y84.2 E383.23186
G0 F6000 X44.481 Y84.439
G1 F1200 X44.4 Y84.6 E383.24026
G1 X44.4 Y135.4 E385.60572
G1 X44.439 Y135.519 E385.61155
G1 X44.6 Y135.6 E385.61994
G1 X175.4 Y135.6 E391.71054
G1 X175.519 Y135.561 E391.71637
G1 X175.6 Y135.4 E391.72476
G1 X175.6 Y84.6 E394.09022
G1 X175.561 Y84.481 E394.09605
G1 X175.4 Y84.4 E394.10444
G1 X44.6 Y84.4 E400.19504
G1 X44.481 Y84.439 E400.20087
G0 F6000 X44.8 Y84.8
;TYPE:SUPPORT-INTERFACE
