;FLAVOR:Marlin
;TIME:17335
;Filament used: 7.0778m
;Layer height: 0.12
;MINX:26.2
;MINY:76.2
;MINZ:0.12
;MAXX:193.8
;MAXY:143.8
;MAXZ:5.16
;TARGET_MACHINE.NAME:Creality Ender-3 Pro
;Generated with Cura_SteamEngine 5.6.0
M82 ;absolute extrusion mode
; Ender 3 Custom Start G-code
G92 E0 ; Reset Extruder
G28 ; Home all axes
G1 Z5.0 F3000 ; Move Z Axis up a bit during heating to not damage bed
M104 S175 ; Start heating up the nozzle most of the way
M190 S60 ; Start heating the bed, wait until target temperature reached
M109 S200 ; Finish heating the nozzle
G1 Z2.0 F3000 ; Move Z Axis up little to prevent scratching of Heat Bed
G1 X0.1 Y20 Z0.3 F5000.0 ; Move to start position
G1 X0.1 Y200.0 Z0.3 F1500.0 E15 ; Draw the first line
G1 X0.4 Y200.0 Z0.3 F5000.0 ; Move to side a little
G1 X0.4 Y20 Z0.3 F1500.0 E30 ; Draw the second line
G92 E0 ; Reset Extruder
G1 Z2.0 F3000 ; Move Z Axis up little to prevent scratching of Heat Bed
G1 X5 Y20 Z0.3 F5000.0 ; Move over to prevent blob squish
G92 E0
G92 E0
G1 F1500 E-6.5
;LAYER_COUNT:43
;LAYER:0
M107
G0 F6000 X31.303 Y76.557 Z0.12
;TYPE:SKIRT
G1 F1500 E0
G1 F1200 X33.021 Y76.275 E0.03474
G1 X186.853 Y76.2 E3.10463
G1 X188.749 Y76.666 E3.14359
G1 X190.777 Y77.719 E3.18919
G1 X192.236 Y79.28 E3.23183
G1 X193.443 Y81.303 E3.27884
G1 X193.725 Y83.021 E3.31359
G1 X193.8 Y136.853 E4.38786
G1 X193.334 Y138.749 E4.42683
G1 X192.281 Y140.777 E4.47243
G1 X190.72 Y142.236 E4.51507
G1 X188.697 Y143.443 E4.56208
G1 X186.979 Y143.725 E4.59682
G1 X33.147 Y143.8 E7.6667
G1 X31.251 Y143.334 E7.70567
G1 X29.223 Y142.281 E7.75127
G1 X27.764 Y140.72 E7.79391
G1 X26.557 Y138.697 E7.84092
G1 X26.275 Y136.979 E7.87566
G1 X26.2 Y83.147 E8.94994
G1 X26.666 Y81.251 E8.9889
G1 X27.719 Y79.223 E9.0345
G1 X29.28 Y77.764 E9.07714
G1 X31.303 Y76.557 E9.12415
G0 F6000 X31.443 Y76.94
G1 F1200 X33.086 Y76.67 E9.15738
G1 X186.807 Y76.6 E12.22505
G1 X188.606 Y77.042 E12.26202
G1 X190.532 Y78.042 E12.30533
G1 X191.912 Y79.519 E12.34567
G1 X193.06 Y81.443 E12.39038
G1 X193.33 Y83.086 E12.4236
G1 X193.4 Y136.807 E13.49567
G1 X192.958 Y138.606 E13.53263
G1 X191.958 Y140.532 E13.57594
G1 X190.481 Y141.912 E13.61628
G1 X188.557 Y143.06 E13.66099
G1 X186.914 Y143.33 E13.69422
G1 X33.193 Y143.4 E16.76189
G1 X31.394 Y142.958 E16.79886
G1 X29.468 Y141.958 E16.84216
G1 X28.088 Y140.481 E16.8825
G1 X26.94 Y138.557 E16.92721
G1 X26.67 Y136.914 E16.96044
G1 X26.6 Y83.193 E18.0325
G1 X27.042 Y81.394 E18.06947
G1 X28.042 Y79.468 E18.11278
G1 X29.519 Y78.088 E18.15312
G1 X31.443 Y76.94 E18.19783
G0 F6000 X31.581 Y77.323
G1 F1200 X33.151 Y77.065 E18.22958
G1 X186.76 Y77 E21.29501
G1 X188.464 Y77.419 E21.33003
G1 X190.287 Y78.365 E21.37102
G1 X191.591 Y79.761 E21.40914
G1 X192.677 Y81.581 E21.45143
G1 X192.935 Y83.151 E21.48319
G1 X193 Y136.76 E22.55301
G1 X192.581 Y138.464 E22.58803
G1 X191.635 Y140.287 E22.62902
G1 X190.239 Y141.591 E22.66714
G1 X188.419 Y142.677 E22.70943
G1 X186.849 Y142.935 E22.74118
G1 X33.24 Y143 E25.80662
G1 X31.536 Y142.581 E25.84164
G1 X29.713 Y141.635 E25.88262
G1 X28.409 Y140.239 E25.92074
G1 X27.323 Y138.419 E25.96304
G1 X27.065 Y136.849 E25.99479
G1 X27 Y83.24 E27.06462
G1 X27.419 Y81.536 E27.09964
G1 X28.365 Y79.713 E27.14062
G1 X29.761 Y78.409 E27.17874
G1 X31.581 Y77.323 E27.22104
G0 F6000 X31.719 Y77.706
G1 F1200 X33.216 Y77.46 E27.25131
G1 X186.714 Y77.4 E30.31453
G1 X188.321 Y77.795 E30.34756
G1 X190.042 Y78.688 E30.38625
G1 X191.27 Y80.003 E30.42215
G1 X192.294 Y81.719 E30.46203
G1 X192.54 Y83.216 E30.49231
G1 X192.6 Y136.714 E31.55992
G1 X192.205 Y138.321 E31.59294
G1 X191.312 Y140.042 E31.63164
G1 X189.997 Y141.27 E31.66754
G1 X188.281 Y142.294 E31.70742
G1 X186.784 Y142.54 E31.73769
G1 X33.286 Y142.6 E34.80091
G1 X31.679 Y142.205 E34.83394
G1 X29.958 Y141.312 E34.87263
G1 X28.73 Y139.997 E34.90853
G1 X27.706 Y138.281 E34.94841
G1 X27.46 Y136.784 E34.97869
G1 X27.4 Y83.286 E36.0463
G1 X27.795 Y81.679 E36.07932
G1 X28.688 Y79.958 E36.11802
G1 X30.003 Y78.73 E36.15392
G1 X31.719 Y77.706 E36.1938
G0 F6000 X31.857 Y78.089
G1 F1200 X33.281 Y77.855 E36.2226
G1 X186.668 Y77.8 E39.2836
G1 X188.178 Y78.171 E39.31463
G1 X189.797 Y79.011 E39.35103
G1 X190.949 Y80.245 E39.38472
G1 X191.911 Y81.857 E39.42218
G1 X192.145 Y83.281 E39.45098
G1 X192.2 Y136.668 E40.51638
G1 X191.829 Y138.178 E40.54741
G1 X190.989 Y139.797 E40.5838
G1 X189.755 Y140.949 E40.61749
G1 X188.143 Y141.911 E40.65496
G1 X186.719 Y142.145 E40.68375
G1 X33.332 Y142.2 E43.74476
G1 X31.822 Y141.829 E43.77579
G1 X30.203 Y140.989 E43.81219
G1 X29.051 Y139.755 E43.84588
G1 X28.089 Y138.143 E43.88334
G1 X27.855 Y136.719 E43.91214
G1 X27.8 Y83.332 E44.97753
G1 X28.171 Y81.822 E45.00856
G1 X29.011 Y80.203 E45.04496
G1 X30.245 Y79.051 E45.07865
G1 X31.857 Y78.089 E45.11611
G0 F6000 X31.995 Y78.472
G1 F1200 X33.346 Y78.25 E45.14343
G1 X186.621 Y78.2 E48.2022
G1 X188.036 Y78.548 E48.23128
G1 X189.552 Y79.334 E48.26536
G1 X190.628 Y80.487 E48.29683
G1 X191.528 Y81.995 E48.33188
G1 X191.75 Y83.346 E48.3592
G1 X191.8 Y136.621 E49.42236
G1 X191.452 Y138.036 E49.45144
G1 X190.666 Y139.552 E49.48552
G1 X189.513 Y140.628 E49.51699
G1 X188.005 Y141.528 E49.55204
G1 X186.654 Y141.75 E49.57936
G1 X33.379 Y141.8 E52.63813
G1 X31.964 Y141.452 E52.66721
G1 X30.448 Y140.666 E52.70128
G1 X29.372 Y139.513 E52.73276
G1 X28.472 Y138.005 E52.7678
G1 X28.25 Y136.654 E52.79512
G1 X28.2 Y83.379 E53.85828
G1 X28.548 Y81.964 E53.88736
G1 X29.334 Y80.448 E53.92144
G1 X30.487 Y79.372 E53.95291
G1 X31.995 Y78.472 E53.98796
G0 F6000 X32.133 Y78.855
G1 F1200 X33.411 Y78.645 E54.01381
G1 X186.575 Y78.6 E57.07036
G1 X187.893 Y78.924 E57.09744
G1 X189.307 Y79.657 E57.12923
G1 X190.307 Y80.729 E57.15848
G1 X191.145 Y82.133 E57.19111
G1 X191.355 Y83.411 E57.21696
G1 X191.4 Y136.575 E58.27791
G1 X191.076 Y137.893 E58.30499
G1 X190.343 Y139.307 E58.33677
G1 X189.271 Y140.307 E58.36603
G1 X187.867 Y141.145 E58.39866
G1 X186.589 Y141.355 E58.42451
G1 X33.425 Y141.4 E61.48106
G1 X32.107 Y141.076 E61.50814
G1 X30.693 Y140.343 E61.53993
G1 X29.693 Y139.271 E61.56918
G1 X28.855 Y137.867 E61.60181
G1 X28.645 Y136.589 E61.62766
G1 X28.6 Y83.425 E62.68861
G1 X28.924 Y82.107 E62.71569
G1 X29.657 Y80.693 E62.74747
G1 X30.729 Y79.693 E62.77673
G1 X32.133 Y78.855 E62.80936
G0 F6000 X32.271 Y79.238
G1 F1200 X33.476 Y79.04 E62.83373
G1 X186.529 Y79 E65.88807
G1 X187.75 Y79.3 E65.91316
G1 X189.06 Y79.979 E65.9426
G1 X189.988 Y80.974 E65.96976
G1 X190.762 Y82.271 E65.9999
G1 X190.96 Y83.476 E66.02427
G1 X191 Y136.529 E67.083
G1 X190.7 Y137.75 E67.10809
G1 X190.021 Y139.06 E67.13753
G1 X189.026 Y139.988 E67.16469
G1 X187.729 Y140.762 E67.19483
G1 X186.524 Y140.96 E67.2192
G1 X33.471 Y141 E70.27354
G1 X32.25 Y140.7 E70.29863
G1 X30.94 Y140.021 E70.32807
G1 X30.012 Y139.026 E70.35522
G1 X29.238 Y137.729 E70.38537
G1 X29.04 Y136.524 E70.40974
G1 X29 Y83.471 E71.46847
G1 X29.3 Y82.25 E71.49356
G1 X29.979 Y80.94 E71.523
G1 X30.974 Y80.012 E71.55015
G1 X32.271 Y79.238 E71.5803
G0 F6000 X32.411 Y79.621
G1 F1200 X33.541 Y79.435 E71.60315
G1 X186.483 Y79.4 E74.65527
G1 X187.607 Y79.676 E74.67837
G1 X188.813 Y80.301 E74.70548
G1 X189.666 Y81.216 E74.73044
G1 X190.379 Y82.411 E74.75821
G1 X190.565 Y83.541 E74.78106
G1 X190.6 Y136.483 E75.83758
G1 X190.324 Y137.607 E75.86068
G1 X189.699 Y138.813 E75.88778
G1 X188.784 Y139.666 E75.91275
G1 X187.589 Y140.379 E75.94052
G1 X186.459 Y140.565 E75.96337
G1 X33.517 Y140.6 E79.01549
G1 X32.393 Y140.324 E79.03859
G1 X31.187 Y139.699 E79.0657
G1 X30.334 Y138.784 E79.09066
G1 X29.621 Y137.589 E79.11843
G1 X29.435 Y136.459 E79.14128
G1 X29.4 Y83.517 E80.1978
G1 X29.676 Y82.393 E80.2209
G1 X30.301 Y81.187 E80.248
G1 X31.216 Y80.334 E80.27297
G1 X32.411 Y79.621 E80.30074
G0 F6000 X32.551 Y80.004
G1 F1200 X33.606 Y79.83 E80.32207
G1 X186.436 Y79.8 E83.37196
G1 X187.465 Y80.053 E83.39311
G1 X188.566 Y80.623 E83.41785
G1 X189.344 Y81.458 E83.44063
G1 X189.996 Y82.551 E83.46602
G1 X190.17 Y83.606 E83.48736
G1 X190.2 Y136.436 E84.54164
G1 X189.947 Y137.465 E84.56279
G1 X189.377 Y138.566 E84.58753
G1 X188.542 Y139.344 E84.61031
G1 X187.449 Y139.996 E84.6357
G1 X186.394 Y140.17 E84.65704
G1 X33.564 Y140.2 E87.70693
G1 X32.535 Y139.947 E87.72808
G1 X31.434 Y139.377 E87.75282
G1 X30.656 Y138.542 E87.77559
G1 X30.004 Y137.449 E87.80099
G1 X29.83 Y136.394 E87.82233
G1 X29.8 Y83.564 E88.87661
G1 X30.053 Y82.535 E88.89776
G1 X30.623 Y81.434 E88.9225
G1 X31.458 Y80.656 E88.94527
G1 X32.551 Y80.004 E88.97067
G0 F6000 X32.691 Y80.387
G1 F1200 X33.671 Y80.225 E88.99049
G1 X186.39 Y80.2 E92.03817
G1 X187.322 Y80.429 E92.05732
G1 X188.319 Y80.945 E92.07972
G1 X189.022 Y81.7 E92.10031
G1 X189.613 Y82.691 E92.12333
G1 X189.775 Y83.671 E92.14316
G1 X189.8 Y136.39 E93.19522
G1 X189.571 Y137.322 E93.21437
G1 X189.055 Y138.319 E93.23678
G1 X188.3 Y139.022 E93.25736
G1 X187.309 Y139.613 E93.28039
G1 X186.329 Y139.775 E93.30021
G1 X33.61 Y139.8 E96.34788
G1 X32.678 Y139.571 E96.36704
G1 X31.681 Y139.055 E96.38944
G1 X30.978 Y138.3 E96.41003
G1 X30.387 Y137.309 E96.43305
G1 X30.225 Y136.329 E96.45288
G1 X30.2 Y83.61 E97.50494
G1 X30.429 Y82.678 E97.52409
G1 X30.945 Y81.681 E97.5465
G1 X31.7 Y80.978 E97.56708
G1 X32.691 Y80.387 E97.59011
G0 F6000 X32.831 Y80.77
G1 F1200 X33.736 Y80.62 E97.60842
G1 X186.344 Y80.6 E100.65387
G1 X187.179 Y80.805 E100.67103
G1 X188.074 Y81.268 E100.69114
G1 X188.698 Y81.939 E100.70943
G1 X189.23 Y82.831 E100.73015
G1 X189.38 Y83.736 E100.74846
G1 X189.4 Y136.344 E101.79831
G1 X189.195 Y137.179 E101.81547
G1 X188.732 Y138.074 E101.83558
G1 X188.061 Y138.698 E101.85386
G1 X187.169 Y139.23 E101.87459
G1 X186.264 Y139.38 E101.89289
G1 X33.656 Y139.4 E104.93835
G1 X32.821 Y139.195 E104.95551
G1 X31.926 Y138.732 E104.97562
G1 X31.302 Y138.061 E104.99391
G1 X30.77 Y137.169 E105.01463
G1 X30.62 Y136.264 E105.03294
G1 X30.6 Y83.656 E106.08279
G1 X30.805 Y82.821 E106.09995
G1 X31.268 Y81.926 E106.12006
G1 X31.939 Y81.302 E106.13834
G1 X32.831 Y80.77 E106.15907
G0 F6000 X32.971 Y81.153
G1 F1200 X33.802 Y81.015 E106.17588
G1 X186.298 Y81 E109.2191
G1 X187.036 Y81.181 E109.23427
G1 X187.829 Y81.591 E109.25208
G1 X188.374 Y82.178 E109.26806
G1 X188.847 Y82.971 E109.28649
G1 X188.985 Y83.802 E109.3033
G1 X189 Y136.298 E110.35092
G1 X188.819 Y137.036 E110.36608
G1 X188.409 Y137.829 E110.3839
G1 X187.822 Y138.374 E110.39988
G1 X187.029 Y138.847 E110.41831
G1 X186.198 Y138.985 E110.43512
G1 X33.702 Y139 E113.47834
G1 X32.964 Y138.819 E113.4935
G1 X32.171 Y138.409 E113.51132
G1 X31.626 Y137.822 E113.5273
G1 X31.153 Y137.029 E113.54573
G1 X31.015 Y136.198 E113.56254
G1 X31 Y83.702 E114.61016
G1 X31.181 Y82.964 E114.62532
G1 X31.591 Y82.171 E114.64313
G1 X32.178 Y81.626 E114.65912
G1 X32.971 Y81.153 E114.67755
G0 F6000 X33.111 Y81.536
G1 F1200 X33.868 Y81.41 E114.69286
G1 X186.248 Y81.4 E117.73377
G1 X186.897 Y81.559 E117.7471
G1 X187.584 Y81.914 E117.76253
G1 X188.05 Y82.417 E117.77622
G1 X188.464 Y83.111 E117.79235
G1 X188.59 Y83.868 E117.80766
G1 X188.6 Y136.248 E118.85296
G1 X188.441 Y136.897 E118.86629
G1 X188.086 Y137.584 E118.88173
G1 X187.583 Y138.05 E118.89541
G1 X186.889 Y138.464 E118.91154
G1 X186.132 Y138.59 E118.92685
G1 X33.752 Y138.6 E121.96776
G1 X33.103 Y138.441 E121.98109
G1 X32.416 Y138.086 E121.99652
G1 X31.95 Y137.583 E122.01021
G1 X31.536 Y136.889 E122.02634
G1 X31.41 Y136.132 E122.04165
G1 X31.4 Y83.752 E123.08695
G1 X31.559 Y83.103 E123.10028
G1 X31.914 Y82.416 E123.11572
G1 X32.417 Y81.95 E123.1294
G1 X33.111 Y81.536 E123.14553
G0 F6000 X33.251 Y81.919
G1 F1200 X33.934 Y81.805 E123.15934
G1 X186.198 Y81.8 E126.19794
G1 X186.758 Y81.937 E126.20944
G1 X187.338 Y82.237 E126.22247
G1 X187.726 Y82.656 E126.23387
G1 X188.081 Y83.251 E126.2477
G1 X188.195 Y83.934 E126.26151
G1 X188.2 Y136.198 E127.3045
G1 X188.063 Y136.758 E127.316
G1 X187.763 Y137.338 E127.32904
G1 X187.344 Y137.726 E127.34043
G1 X186.749 Y138.081 E127.35426
G1 X186.066 Y138.195 E127.36808
G1 X33.802 Y138.2 E130.40667
G1 X33.242 Y138.063 E130.41817
G1 X32.662 Y137.763 E130.43121
G1 X32.274 Y137.344 E130.4426
G1 X31.919 Y136.749 E130.45643
G1 X31.805 Y136.066 E130.47025
G1 X31.8 Y83.802 E131.51323
G1 X31.937 Y83.242 E131.52474
G1 X32.237 Y82.662 E131.53777
G1 X32.656 Y82.274 E131.54916
G1 X33.251 Y81.919 E131.56299
G0 F6000 X33.389 Y82.302
G1 F1200 X34 Y82.2 E131.57535
G1 X186.148 Y82.2 E134.61163
G1 X186.619 Y82.315 E134.62131
G1 X187.092 Y82.56 E134.63194
G1 X187.405 Y82.898 E134.64113
G1 X187.698 Y83.389 E134.65254
G1 X187.8 Y84 E134.6649
G1 X187.8 Y136.148 E135.70557
G1 X187.685 Y136.619 E135.71525
G1 X187.44 Y137.092 E135.72588
G1 X187.102 Y137.405 E135.73507
G1 X186.611 Y137.698 E135.74648
G1 X186 Y137.8 E135.75884
G1 X33.852 Y137.8 E138.79512
G1 X33.381 Y137.685 E138.8048
G1 X32.908 Y137.44 E138.81543
G1 X32.595 Y137.102 E138.82462
G1 X32.302 Y136.611 E138.83603
G1 X32.2 Y136 E138.84839
G1 X32.2 Y83.852 E139.88906
G1 X32.315 Y83.381 E139.89874
G1 X32.56 Y82.908 E139.90937
G1 X32.898 Y82.595 E139.91856
G1 X33.389 Y82.302 E139.92997
G0 F6000 X33.527 Y82.685
G1 F1200 X34 Y82.6 E139.93956
G1 X186.098 Y82.6 E142.97484
G1 X186.48 Y82.693 E142.98269
G1 X186.846 Y82.883 E142.99092
G1 X187.084 Y83.14 E142.99791
G1 X187.315 Y83.527 E143.0069
G1 X187.4 Y84 E143.01649
G1 X187.4 Y136.098 E144.05616
G1 X187.307 Y136.48 E144.06401
G1 X187.117 Y136.846 E144.07224
G1 X186.86 Y137.084 E144.07923
G1 X186.473 Y137.315 E144.08822
G1 X186 Y137.4 E144.09781
G1 X33.902 Y137.4 E147.13309
G1 X33.52 Y137.307 E147.14094
G1 X33.154 Y137.117 E147.14917
G1 X32.916 Y136.86 E147.15616
G1 X32.685 Y136.473 E147.16515
G1 X32.6 Y136 E147.17474
G1 X32.6 Y83.902 E148.21441
G1 X32.693 Y83.52 E148.22226
G1 X32.883 Y83.154 E148.23049
G1 X33.14 Y82.916 E148.23748
G1 X33.527 Y82.685 E148.24647
G0 F6000 X33.672 Y83.065
G1 F1200 X33.345 Y83.26 E148.25407
G1 X33.207 Y83.399 E148.25798
G1 X33.07 Y83.662 E148.2639
G1 X33 Y83.951 E148.26983
G1 X33 Y136 E149.30853
G1 X33.065 Y136.328 E149.3152
G1 X33.26 Y136.655 E149.3228
G1 X33.399 Y136.793 E149.32671
G1 X33.662 Y136.93 E149.33262
G1 X33.951 Y137 E149.33856
G1 X186 Y137 E152.37286
G1 X186.328 Y136.935 E152.37953
G1 X186.655 Y136.74 E152.38713
G1 X186.793 Y136.601 E152.39104
G1 X186.93 Y136.338 E152.39696
G1 X187 Y136.049 E152.40289
G1 X187 Y84 E153.44159
G1 X186.935 Y83.672 E153.44826
G1 X186.74 Y83.345 E153.45586
G1 X186.601 Y83.207 E153.45977
G1 X186.338 Y83.07 E153.46568
G1 X186.049 Y83 E153.47162
G1 X34 Y83 E156.50592
G1 X33.672 Y83.065 E156.51259
G0 F6000 X34 Y83.8
G1 F1200 X186 Y83.8 E159.54592
G1 X186.119 Y83.839 E159.54842
G1 X186.2 Y84 E159.55201
G1 X186.2 Y136 E160.58973
G1 X186.161 Y136.119 E160.59223
G1 X186 Y136.2 E160.59582
G1 X34 Y136.2 E163.62915
G1 X33.881 Y136.161 E163.63165
G1 X33.8 Y136 E163.63524
G1 X33.8 Y84 E164.67296
G1 X33.839 Y83.881 E164.67546
G1 X34 Y83.8 E164.67906
G0 F6000 X33.82 Y83.443
G1 F1200 X34 Y83.4 E164.68275
G1 X186 Y83.4 E167.71607
G1 X186.244 Y83.459 E167.72108
G1 X186.396 Y83.55 E167.72462
G1 X186.557 Y83.82 E167.73089
G1 X186.6 Y84 E167.73459
G1 X186.6 Y136 E168.7723
G1 X186.541 Y136.244 E168.77731
G1 X186.45 Y136.396 E168.78085
G1 X186.18 Y136.557 E168.78712
G1 X186 Y136.6 E168.79081
G1 X34 Y136.6 E171.82414
G1 X33.756 Y136.541 E171.82915
G1 X33.604 Y136.45 E171.83268
G1 X33.443 Y136.18 E171.83896
G1 X33.4 Y136 E171.84265
G1 X33.4 Y84 E172.88037
G1 X33.459 Y83.756 E172.88537
G1 X33.55 Y83.604 E172.88891
G1 X33.82 Y83.443 E172.89518
G0 F6000 X34.2 Y84.2
G1 F1200 X185.8 Y84.2 E175.92053
G1 X185.8 Y135.8 E176.95026
G1 X34.2 Y135.8 E179.9756
G1 X34.2 Y84.2 E181.00533
G0 F6000 X34.6 Y84.6
G1 F1200 X185.4 Y84.6 E184.01471
G1 X185.4 Y135.4 E185.02848
G1 X34.6 Y135.4 E188.03786
G1 X34.6 Y84.6 E189.05163
G0 F6000 X35 Y85
G1 F1200 X185 Y85 E192.04504
G1 X185 Y135 E193.04284
G1 X35 Y135 E196.03626
G1 X35 Y85 E197.03406
G0 F6000 X35.4 Y85.4
G1 F1200 X184.6 Y85.4 E200.01151
G1 X184.6 Y134.6 E200.99335
G1 X35.4 Y134.6 E203.97079
G1 X35.4 Y85.4 E204.95263
G0 F6000 X35.8 Y85.8
G1 F1200 X36.079 Y85.8 E204.9582
G1 X35.855 Y86.003 E204.96423
G1 X35.8 Y86.08 E204.96612
G1 X35.8 Y85.8 E204.97171
G0 F6000 X36.279 Y86.145
G1 F1200 X36.056 Y86.393 E204.97836
